; LightBurn 1.3.01
; GRBL device profile, absolute coords
; Bounds: X2 Y6.96 to X130 Y30

;USER START SCRIPT
$32=1
;USER START SCRIPT

G00 G17 G40 G21 G54
G90
M4
; Cut @ 180000 mm/min, 40% power
M9
G0 X7.007Y6.962
; Layer C00
G1 X6.993Y26.962S400F180000
G1 X26.993Y26.975
G1 X27.007Y6.975
G1 X7.007Y6.962
; Scan @ 6000 mm/min, 20% power
M8
G0 X4.507Y7.018
; Layer C00
G91
G1 X2.5F6000S0
G1 X20S200
G1 X2.5S0
G1 Y0.1S0
G1 X-2.5S0
G1 X-20S200
G1 X-2.5S0
G1 Y0.1S0
G1 X2.5S0
G1 X20S200
G1 X2.5S0
G1 Y0.1S0
G1 X-2.5S0
G1 X-20S200
G1 X-2.5S0
G1 Y0.1S0
G1 X2.5S0
G1 X20S200
G1 X2.5S0
G1 Y0.1S0
G1 X-2.5S0
G1 X-20S200
G1 X-2.5S0
G1 Y0.1S0
G1 X2.499S0
G1 X20S200
G1 X2.5S0
G1 Y0.1S0
G1 X-2.5S0
G1 X-20S200
G1 X-2.5S0
G1 Y0.1S0
G1 X2.5S0
G1 X20S200
G1 X2.5S0
G1 Y0.1S0
G1 X-2.5S0
G1 X-20S200
G1 X-2.5S0
G1 Y0.1S0
G1 X2.5S0
G1 X20S200
G1 X2.5S0
G1 Y0.1S0
G1 X-2.5S0
G1 X-20S200
G1 X-2.5S0
G1 Y0.1S0
G1 X2.5S0
G1 X20S200
G1 X2.5S0
G1 Y0.1S0
G1 X-2.5S0
G1 X-20S200
G1 X-2.5S0
G1 Y0.1S0
G1 X2.5S0
G1 X20S200
G1 X2.5S0
G1 Y0.1S0
G1 X-2.5S0
G1 X-20S200
G1 X-2.5S0
G1 Y0.1S0
G1 X2.5S0
G1 X20S200
G1 X2.5S0
G1 Y0.1S0
G1 X-2.5S0
G1 X-20S200
G1 X-2.5S0
G1 Y0.1S0
G1 X2.5S0
G1 X20S200
G1 X2.5S0
G1 Y0.1S0
G1 X-2.5S0
G1 X-20S200
G1 X-2.5S0
G1 Y0.1S0
G1 X2.499S0
G1 X20S200
G1 X2.5S0
G1 Y0.1S0
G1 X-2.5S0
G1 X-20S200
G1 X-2.5S0
G1 Y0.1S0
G1 X2.5S0
G1 X20S200
G1 X2.5S0
G1 Y0.1S0
G1 X-2.5S0
G1 X-20S200
G1 X-2.5S0
G1 Y0.1S0
G1 X2.5S0
G1 X20S200
G1 X2.5S0
G1 Y0.1S0
G1 X-2.5S0
G1 X-20S200
G1 X-2.5S0
G1 Y0.1S0
G1 X2.5S0
G1 X20S200
G1 X2.5S0
G1 Y0.1S0
G1 X-2.5S0
G1 X-20S200
G1 X-2.5S0
G1 Y0.1S0
G1 X2.5S0
G1 X20S200
G1 X2.5S0
G1 Y0.1S0
G1 X-2.5S0
G1 X-20S200
G1 X-2.5S0
G1 Y0.1S0
G1 X2.5S0
G1 X20S200
G1 X2.5S0
G1 Y0.1S0
G1 X-2.5S0
G1 X-20S200
G1 X-2.5S0
G1 Y0.1S0
G1 X2.5S0
G1 X20S200
G1 X2.5S0
G1 Y0.1S0
G1 X-2.5S0
G1 X-20S200
G1 X-2.5S0
G1 Y0.1S0
G1 X2.5S0
G1 X20S200
G1 X2.5S0
G1 Y0.1S0
G1 X-2.501S0
G1 X-20S200
G1 X-2.5S0
G1 Y0.1S0
G1 X2.5S0
G1 X20S200
G1 X2.5S0
G1 Y0.1S0
G1 X-2.5S0
G1 X-20S200
G1 X-2.5S0
G1 Y0.1S0
G1 X2.5S0
G1 X20S200
G1 X2.5S0
G1 Y0.1S0
G1 X-2.5S0
G1 X-20S200
G1 X-2.5S0
G1 Y0.1S0
G1 X2.5S0
G1 X20S200
G1 X2.5S0
G1 Y0.1S0
G1 X-2.5S0
G1 X-20S200
G1 X-2.5S0
G1 Y0.1S0
G1 X2.5S0
G1 X20S200
G1 X2.5S0
G1 Y0.1S0
G1 X-2.5S0
G1 X-20S200
G1 X-2.5S0
G1 Y0.1S0
G1 X2.5S0
G1 X20S200
G1 X2.5S0
G1 Y0.1S0
G1 X-2.5S0
G1 X-20S200
G1 X-2.5S0
G1 Y0.1S0
G1 X2.5S0
G1 X20S200
G1 X2.5S0
G1 Y0.1S0
G1 X-2.5S0
G1 X-20S200
G1 X-2.5S0
G1 Y0.1S0
G1 X2.5S0
G1 X20S200
G1 X2.5S0
G1 Y0.1S0
G1 X-2.501S0
G1 X-20S200
G1 X-2.5S0
G1 Y0.1S0
G1 X2.5S0
G1 X20S200
G1 X2.5S0
G1 Y0.1S0
G1 X-2.5S0
G1 X-20S200
G1 X-2.5S0
G1 Y0.1S0
G1 X2.5S0
G1 X20S200
G1 X2.5S0
G1 Y0.1S0
G1 X-2.5S0
G1 X-20S200
G1 X-2.5S0
G1 Y0.1S0
G1 X2.5S0
G1 X20S200
G1 X2.5S0
G1 Y0.1S0
G1 X-2.5S0
G1 X-20S200
G1 X-2.5S0
G1 Y0.1S0
G1 X2.5S0
G1 X20S200
G1 X2.5S0
G1 Y0.1S0
G1 X-2.5S0
G1 X-20S200
G1 X-2.5S0
G1 Y0.1S0
G1 X2.5S0
G1 X20S200
G1 X2.5S0
G1 Y0.1S0
G1 X-2.5S0
G1 X-20S200
G1 X-2.5S0
G1 Y0.1S0
G1 X2.5S0
G1 X20S200
G1 X2.5S0
G1 Y0.1S0
G1 X-2.5S0
G1 X-20S200
G1 X-2.5S0
G1 Y0.1S0
G1 X2.5S0
G1 X20S200
G1 X2.5S0
G1 Y0.1S0
G1 X-2.5S0
G1 X-20S200
G1 X-2.5S0
G1 Y0.1S0
G1 X2.499S0
G1 X20S200
G1 X2.5S0
G1 Y0.1S0
G1 X-2.5S0
G1 X-20S200
G1 X-2.5S0
G1 Y0.1S0
G1 X2.5S0
G1 X20S200
G1 X2.5S0
G1 Y0.1S0
G1 X-2.5S0
G1 X-20S200
G1 X-2.5S0
G1 Y0.1S0
G1 X2.5S0
G1 X20S200
G1 X2.5S0
G1 Y0.1S0
G1 X-2.5S0
G1 X-20S200
G1 X-2.5S0
G1 Y0.1S0
G1 X2.5S0
G1 X20S200
G1 X2.5S0
G1 Y0.1S0
G1 X-2.5S0
G1 X-20S200
G1 X-2.5S0
G1 Y0.1S0
G1 X2.5S0
G1 X20S200
G1 X2.5S0
G1 Y0.1S0
G1 X-2.5S0
G1 X-20S200
G1 X-2.5S0
G1 Y0.1S0
G1 X2.5S0
G1 X20S200
G1 X2.5S0
G1 Y0.1S0
G1 X-2.5S0
G1 X-20S200
G1 X-2.5S0
G1 Y0.1S0
G1 X2.5S0
G1 X20S200
G1 X2.5S0
G1 Y0.1S0
G1 X-2.5S0
G1 X-20S200
G1 X-2.5S0
G1 Y0.1S0
G1 X2.499S0
G1 X20S200
G1 X2.5S0
G1 Y0.1S0
G1 X-2.5S0
G1 X-20S200
G1 X-2.5S0
G1 Y0.1S0
G1 X2.5S0
G1 X20S200
G1 X2.5S0
G1 Y0.1S0
G1 X-2.5S0
G1 X-20S200
G1 X-2.5S0
G1 Y0.1S0
G1 X2.5S0
G1 X20S200
G1 X2.5S0
G1 Y0.1S0
G1 X-2.5S0
G1 X-20S200
G1 X-2.5S0
G1 Y0.1S0
G1 X2.5S0
G1 X20S200
G1 X2.5S0
G1 Y0.1S0
G1 X-2.5S0
G1 X-20S200
G1 X-2.5S0
G1 Y0.1S0
G1 X2.5S0
G1 X20S200
G1 X2.5S0
G1 Y0.1S0
G1 X-2.5S0
G1 X-20S200
G1 X-2.5S0
G1 Y0.1S0
G1 X2.5S0
G1 X20S200
G1 X2.5S0
G1 Y0.1S0
G1 X-2.5S0
G1 X-20S200
G1 X-2.5S0
G1 Y0.1S0
G1 X2.5S0
G1 X20S200
G1 X2.5S0
G1 Y0.1S0
G1 X-2.5S0
G1 X-20S200
G1 X-2.5S0
G1 Y0.1S0
G1 X2.5S0
G1 X20S200
G1 X2.5S0
G1 Y0.1S0
G1 X-2.501S0
G1 X-20S200
G1 X-2.5S0
G1 Y0.1S0
G1 X2.5S0
G1 X20S200
G1 X2.5S0
G1 Y0.1S0
G1 X-2.5S0
G1 X-20S200
G1 X-2.5S0
G1 Y0.1S0
G1 X2.5S0
G1 X20S200
G1 X2.5S0
G1 Y0.1S0
G1 X-2.5S0
G1 X-20S200
G1 X-2.5S0
G1 Y0.1S0
G1 X2.5S0
G1 X20S200
G1 X2.5S0
G1 Y0.1S0
G1 X-2.5S0
G1 X-20S200
G1 X-2.5S0
G1 Y0.1S0
G1 X2.5S0
G1 X20S200
G1 X2.5S0
G1 Y0.1S0
G1 X-2.5S0
G1 X-20S200
G1 X-2.5S0
G1 Y0.1S0
G1 X2.5S0
G1 X20S200
G1 X2.5S0
G1 Y0.1S0
G1 X-2.5S0
G1 X-20S200
G1 X-2.5S0
G1 Y0.1S0
G1 X2.5S0
G1 X20S200
G1 X2.5S0
G1 Y0.1S0
G1 X-2.5S0
G1 X-20S200
G1 X-2.5S0
G1 Y0.1S0
G1 X2.5S0
G1 X20S200
G1 X2.5S0
G1 Y0.1S0
G1 X-2.501S0
G1 X-20S200
G1 X-2.5S0
G1 Y0.1S0
G1 X2.5S0
G1 X20S200
G1 X2.5S0
G1 Y0.1S0
G1 X-2.5S0
G1 X-20S200
G1 X-2.5S0
G1 Y0.1S0
G1 X2.5S0
G1 X20S200
G1 X2.5S0
G1 Y0.1S0
G1 X-2.5S0
G1 X-20S200
G1 X-2.5S0
G1 Y0.1S0
G1 X2.5S0
G1 X20S200
G1 X2.5S0
G1 Y0.1S0
G1 X-2.5S0
G1 X-20S200
G1 X-2.5S0
G1 Y0.1S0
G1 X2.5S0
G1 X20S200
G1 X2.5S0
G1 Y0.1S0
G1 X-2.5S0
G1 X-20S200
G1 X-2.5S0
G1 Y0.1S0
G1 X2.5S0
G1 X20S200
G1 X2.5S0
G1 Y0.1S0
G1 X-2.5S0
G1 X-20S200
G1 X-2.5S0
G1 Y0.1S0
G1 X2.5S0
G1 X20S200
G1 X2.5S0
G1 Y0.1S0
G1 X-2.5S0
G1 X-20S200
G1 X-2.5S0
G1 Y0.1S0
G1 X2.5S0
G1 X20S200
G1 X2.5S0
G1 Y0.1S0
G1 X-2.5S0
G1 X-20S200
G1 X-2.5S0
G1 Y0.1S0
G1 X2.499S0
G1 X20S200
G1 X2.5S0
G1 Y0.1S0
G1 X-2.5S0
G1 X-20S200
G1 X-2.5S0
G1 Y0.1S0
G1 X2.5S0
G1 X20S200
G1 X2.5S0
G1 Y0.1S0
G1 X-2.5S0
G1 X-20S200
G1 X-2.5S0
G1 Y0.1S0
G1 X2.5S0
G1 X20S200
G1 X2.5S0
G1 Y0.1S0
G1 X-2.5S0
G1 X-20S200
G1 X-2.5S0
G1 Y0.1S0
G1 X2.5S0
G1 X20S200
G1 X2.5S0
G1 Y0.1S0
G1 X-2.5S0
G1 X-20S200
G1 X-2.5S0
G1 Y0.1S0
G1 X2.5S0
G1 X20S200
G1 X2.5S0
G1 Y0.1S0
G1 X-2.5S0
G1 X-20S200
G1 X-2.5S0
G1 Y0.1S0
G1 X2.5S0
G1 X20S200
G1 X2.5S0
G1 Y0.1S0
G1 X-2.5S0
G1 X-20S200
G1 X-2.5S0
G1 Y0.1S0
G1 X2.5S0
G1 X20S200
G1 X2.5S0
G1 Y0.1S0
G1 X-2.5S0
G1 X-20S200
G1 X-2.5S0
G1 Y0.1S0
G1 X2.499S0
G1 X20.001S200
G1 X2.5S0
G1 Y0.1S0
G1 X-2.501S0
G1 X-20S200
G1 X-2.5S0
G1 Y0.1S0
G1 X2.5S0
G1 X20S200
G1 X2.5S0
G1 Y0.1S0
G1 X-2.5S0
G1 X-20S200
G1 X-2.5S0
G1 Y0.1S0
G1 X2.5S0
G1 X20S200
G1 X2.5S0
G1 Y0.1S0
G1 X-2.5S0
G1 X-20S200
G1 X-2.5S0
G1 Y0.1S0
G1 X2.5S0
G1 X20S200
G1 X2.5S0
G1 Y0.1S0
G1 X-2.5S0
G1 X-20S200
G1 X-2.5S0
G1 Y0.1S0
G1 X2.5S0
G1 X20S200
G1 X2.5S0
G1 Y0.1S0
G1 X-2.5S0
G1 X-20S200
G1 X-2.5S0
G1 Y0.1S0
G1 X2.5S0
G1 X20S200
G1 X2.5S0
G1 Y0.1S0
G1 X-2.5S0
G1 X-20S200
G1 X-2.5S0
G1 Y0.1S0
G1 X2.5S0
G1 X20S200
G1 X2.5S0
G1 Y0.1S0
G1 X-2.5S0
G1 X-20S200
G1 X-2.5S0
G1 Y0.1S0
G1 X2.5S0
G1 X20S200
G1 X2.5S0
G1 Y0.1S0
G1 X-2.501S0
G1 X-20S200
G1 X-2.5S0
G1 Y0.1S0
G1 X2.5S0
G1 X20S200
G1 X2.5S0
G1 Y0.1S0
G1 X-2.5S0
G1 X-20S200
G1 X-2.5S0
G1 Y0.1S0
G1 X2.5S0
G1 X20S200
G1 X2.5S0
G1 Y0.1S0
G1 X-2.5S0
G1 X-20S200
G1 X-2.5S0
G1 Y0.1S0
G1 X2.5S0
G1 X20S200
G1 X2.5S0
G1 Y0.1S0
G1 X-2.5S0
G1 X-20S200
G1 X-2.5S0
G1 Y0.1S0
G1 X2.5S0
G1 X20S200
G1 X2.5S0
G1 Y0.1S0
G1 X-2.5S0
G1 X-20S200
G1 X-2.5S0
G1 Y0.1S0
G1 X2.5S0
G1 X20S200
G1 X2.5S0
G1 Y0.1S0
G1 X-2.5S0
G1 X-20S200
G1 X-2.5S0
G1 Y0.1S0
G1 X2.5S0
G1 X20S200
G1 X2.5S0
G1 Y0.1S0
G1 X-2.5S0
G1 X-20S200
G1 X-2.5S0
G1 Y0.1S0
G1 X2.5S0
G1 X20S200
G1 X2.5S0
G1 Y0.1S0
G1 X-2.5S0
G1 X-20S200
G1 X-2.5S0
G1 Y0.1S0
G1 X2.499S0
G1 X20S200
G1 X2.5S0
G1 Y0.1S0
G1 X-2.5S0
G1 X-20S200
G1 X-2.5S0
G1 Y0.1S0
G1 X2.5S0
G1 X20S200
G1 X2.5S0
G1 Y0.1S0
G1 X-2.5S0
G1 X-20S200
G1 X-2.5S0
G1 Y0.1S0
G1 X2.5S0
G1 X20S200
G1 X2.5S0
G1 Y0.1S0
G1 X-2.5S0
G1 X-20S200
G1 X-2.5S0
G1 Y0.1S0
G1 X2.5S0
G1 X20S200
G1 X2.5S0
G1 Y0.1S0
G1 X-2.5S0
G1 X-20S200
G1 X-2.5S0
G1 Y0.1S0
G1 X2.5S0
G1 X20S200
G1 X2.5S0
G1 Y0.1S0
G1 X-2.5S0
G1 X-20S200
G1 X-2.5S0
G1 Y0.1S0
G1 X2.5S0
G1 X20S200
G1 X2.5S0
G1 Y0.1S0
G1 X-2.5S0
G1 X-20S200
G1 X-2.5S0
G1 Y0.1S0
G1 X2.5S0
G1 X20S200
G1 X2.5S0
G1 Y0.1S0
G1 X-2.5S0
G1 X-20S200
G1 X-2.5S0
G1 Y0.1S0
G1 X2.499S0
G1 X20S200
G1 X2.5S0
G1 Y0.1S0
G1 X-2.5S0
G1 X-20S200
G1 X-2.5S0
G1 Y0.1S0
G1 X2.5S0
G1 X20S200
G1 X2.5S0
G1 Y0.1S0
G1 X-2.5S0
G1 X-20S200
G1 X-2.5S0
G1 Y0.1S0
G1 X2.5S0
G1 X20S200
G1 X2.5S0
G1 Y0.1S0
G1 X-2.5S0
G1 X-20S200
G1 X-2.5S0
G1 Y0.1S0
G1 X2.5S0
G1 X20S200
G1 X2.5S0
G1 Y0.1S0
G1 X-2.5S0
G1 X-20S200
G1 X-2.5S0
G1 Y0.1S0
G1 X2.5S0
G1 X20S200
G1 X2.5S0
G1 Y0.1S0
G1 X-2.5S0
G1 X-20S200
G1 X-2.5S0
G1 Y0.1S0
G1 X2.5S0
G1 X20S200
G1 X2.5S0
G1 Y0.1S0
G1 X-2.5S0
G1 X-20S200
G1 X-2.5S0
G1 Y0.1S0
G1 X2.5S0
G1 X20S200
G1 X2.5S0
G1 Y0.1S0
G1 X-2.5S0
G1 X-20S200
G1 X-2.5S0
G1 Y0.1S0
G1 X2.5S0
G1 X20S200
G1 X2.5S0
G1 Y0.1S0
G1 X-2.501S0
G1 X-20S200
G1 X-2.5S0
G1 Y0.1S0
G1 X2.5S0
G1 X20S200
G1 X2.5S0
G1 Y0.1S0
G1 X-2.5S0
G1 X-20S200
G1 X-2.5S0
G1 Y0.1S0
G1 X2.5S0
G1 X20S200
G1 X2.5S0
G1 Y0.1S0
G1 X-2.5S0
G1 X-20S200
G1 X-2.5S0
G90
; Scan @ 4000 mm/min, 30% power
M9
G0 X30.007Y7.034
M3
; Layer LabCUT
G91
G1 X20F4000S300
G1 Y0.1S0
G1 X-20S300
G1 Y0.1S0
G1 X20S300
G1 Y0.1S0
G1 X-20S300
G1 Y0.1S0
G1 X20S300
G1 Y0.1S0
G1 X-20S300
G1 Y0.1S0
G1 X20S300
G1 Y0.1S0
G1 X-20S300
G1 Y0.1S0
G1 X20S300
G1 Y0.1S0
G1 X-20S300
G1 Y0.1S0
G1 X20S300
G1 Y0.1S0
G1 X-20S300
G1 Y0.1S0
G1 X20S300
G1 Y0.1S0
G1 X-20S300
G1 Y0.1S0
G1 X20S300
G1 Y0.1S0
G1 X-20S300
G1 Y0.1S0
G1 X20S300
G1 Y0.1S0
G1 X-20S300
G1 Y0.1S0
G1 X20S300
G1 Y0.1S0
G1 X-20S300
G1 Y0.1S0
G1 X19.999S300
G1 Y0.1S0
G1 X-20S300
G1 Y0.1S0
G1 X20S300
G1 Y0.1S0
G1 X-20S300
G1 Y0.1S0
G1 X20S300
G1 Y0.1S0
G1 X-20S300
G1 Y0.1S0
G1 X20S300
G1 Y0.1S0
G1 X-20S300
G1 Y0.1S0
G1 X20S300
G1 Y0.1S0
G1 X-20S300
G1 Y0.1S0
G1 X20S300
G1 Y0.1S0
G1 X-20S300
G1 Y0.1S0
G1 X20S300
G1 Y0.1S0
G1 X-20S300
G1 Y0.1S0
G1 X20S300
G1 Y0.1S0
G1 X-20.001S300
G1 Y0.1S0
G1 X20S300
G1 Y0.1S0
G1 X-20S300
G1 Y0.1S0
G1 X20S300
G1 Y0.1S0
G1 X-20S300
G1 Y0.1S0
G1 X20S300
G1 Y0.1S0
G1 X-20S300
G1 Y0.1S0
G1 X20S300
G1 Y0.1S0
G1 X-20S300
G1 Y0.1S0
G1 X20S300
G1 Y0.1S0
G1 X-20S300
G1 Y0.1S0
G1 X20S300
G1 Y0.1S0
G1 X-20S300
G1 Y0.1S0
G1 X20S300
G1 Y0.1S0
G1 X-20.001S300
G1 Y0.1S0
G1 X20S300
G1 Y0.1S0
G1 X-20S300
G1 Y0.1S0
G1 X20S300
G1 Y0.1S0
G1 X-20S300
G1 Y0.1S0
G1 X20S300
G1 Y0.1S0
G1 X-20S300
G1 Y0.1S0
G1 X20S300
G1 Y0.1S0
G1 X-20S300
G1 Y0.1S0
G1 X20S300
G1 Y0.1S0
G1 X-20S300
G1 Y0.1S0
G1 X20S300
G1 Y0.1S0
G1 X-20S300
G1 Y0.1S0
G1 X20S300
G1 Y0.1S0
G1 X-20S300
G1 Y0.1S0
G1 X19.999S300
G1 Y0.1S0
G1 X-20S300
G1 Y0.1S0
G1 X20S300
G1 Y0.1S0
G1 X-20S300
G1 Y0.1S0
G1 X20S300
G1 Y0.1S0
G1 X-20S300
G1 Y0.1S0
G1 X20S300
G1 Y0.1S0
G1 X-20S300
G1 Y0.1S0
G1 X20S300
G1 Y0.1S0
G1 X-20S300
G1 Y0.1S0
G1 X20S300
G1 Y0.1S0
G1 X-20S300
G1 Y0.1S0
G1 X20S300
G1 Y0.1S0
G1 X-20S300
G1 Y0.1S0
G1 X19.999S300
G1 Y0.1S0
G1 X-20S300
G1 Y0.1S0
G1 X20S300
G1 Y0.1S0
G1 X-20S300
G1 Y0.1S0
G1 X20S300
G1 Y0.1S0
G1 X-20S300
G1 Y0.1S0
G1 X20S300
G1 Y0.1S0
G1 X-20S300
G1 Y0.1S0
G1 X20S300
G1 Y0.1S0
G1 X-20S300
G1 Y0.1S0
G1 X20S300
G1 Y0.1S0
G1 X-20S300
G1 Y0.1S0
G1 X20S300
G1 Y0.1S0
G1 X-20S300
G1 Y0.1S0
G1 X20S300
G1 Y0.1S0
G1 X-20.001S300
G1 Y0.1S0
G1 X20S300
G1 Y0.1S0
G1 X-20S300
G1 Y0.1S0
G1 X20S300
G1 Y0.1S0
G1 X-20S300
G1 Y0.1S0
G1 X20S300
G1 Y0.1S0
G1 X-20S300
G1 Y0.1S0
G1 X20S300
G1 Y0.1S0
G1 X-20S300
G1 Y0.1S0
G1 X20S300
G1 Y0.1S0
G1 X-20S300
G1 Y0.1S0
G1 X20S300
G1 Y0.1S0
G1 X-20S300
G1 Y0.1S0
G1 X20S300
G1 Y0.1S0
G1 X-20.001S300
G1 Y0.1S0
G1 X20S300
G1 Y0.1S0
G1 X-20S300
G1 Y0.1S0
G1 X20S300
G1 Y0.1S0
G1 X-20S300
G1 Y0.1S0
G1 X20S300
G1 Y0.1S0
G1 X-20S300
G1 Y0.1S0
G1 X20S300
G1 Y0.1S0
G1 X-20S300
G1 Y0.1S0
G1 X20S300
G1 Y0.1S0
G1 X-20S300
G1 Y0.1S0
G1 X20S300
G1 Y0.1S0
G1 X-20S300
G1 Y0.1S0
G1 X20S300
G1 Y0.1S0
G1 X-20S300
G1 Y0.1S0
G1 X19.999S300
G1 Y0.1S0
G1 X-20S300
G1 Y0.1S0
G1 X20S300
G1 Y0.1S0
G1 X-20S300
G1 Y0.1S0
G1 X20S300
G1 Y0.1S0
G1 X-20S300
G1 Y0.1S0
G1 X20S300
G1 Y0.1S0
G1 X-20S300
G1 Y0.1S0
G1 X20S300
G1 Y0.1S0
G1 X-20S300
G1 Y0.1S0
G1 X20S300
G1 Y0.1S0
G1 X-20S300
G1 Y0.1S0
G1 X20S300
G1 Y0.1S0
G1 X-20S300
G1 Y0.1S0
G1 X19.999S300
G1 Y0.1S0
G1 X-20S300
G1 Y0.1S0
G1 X20S300
G1 Y0.1S0
G1 X-20S300
G1 Y0.1S0
G1 X20S300
G1 Y0.1S0
G1 X-20S300
G1 Y0.1S0
G1 X20S300
G1 Y0.1S0
G1 X-20S300
G1 Y0.1S0
G1 X20S300
G1 Y0.1S0
G1 X-20S300
G1 Y0.1S0
G1 X20S300
G1 Y0.1S0
G1 X-20S300
G1 Y0.1S0
G1 X20S300
G1 Y0.1S0
G1 X-20S300
G1 Y0.1S0
G1 X20S300
G1 Y0.1S0
G1 X-20.001S300
G1 Y0.1S0
G1 X20S300
G1 Y0.1S0
G1 X-20S300
G1 Y0.1S0
G1 X20S300
G1 Y0.1S0
G1 X-20S300
G1 Y0.1S0
G1 X20S300
G1 Y0.1S0
G1 X-20S300
G1 Y0.1S0
G1 X20S300
G1 Y0.1S0
G1 X-20S300
G1 Y0.1S0
G1 X20S300
G1 Y0.1S0
G1 X-20S300
G1 Y0.1S0
G1 X20S300
G1 Y0.1S0
G1 X-20S300
G1 Y0.1S0
G1 X20S300
G1 Y0.1S0
G1 X-20.001S300
G1 Y0.1S0
G1 X20S300
G1 Y0.1S0
G1 X-20S300
G1 Y0.1S0
G1 X20S300
G1 Y0.1S0
G1 X-20S300
G1 Y0.1S0
G1 X20S300
G1 Y0.1S0
G1 X-20S300
G1 Y0.1S0
G1 X20S300
G1 Y0.1S0
G1 X-20S300
G1 Y0.1S0
G1 X20S300
G1 Y0.1S0
G1 X-20S300
G1 Y0.1S0
G1 X20S300
G1 Y0.1S0
G1 X-20S300
G1 Y0.1S0
G1 X20S300
G1 Y0.1S0
G1 X-20S300
G1 Y0.1S0
G1 X19.999S300
G1 Y0.1S0
G1 X-20S300
G1 Y0.1S0
G1 X20S300
G1 Y0.1S0
G1 X-20S300
G1 Y0.1S0
G1 X20S300
G1 Y0.1S0
G1 X-20S300
G1 Y0.1S0
G1 X20S300
G1 Y0.1S0
G1 X-20S300
G1 Y0.1S0
G1 X20S300
G1 Y0.1S0
G1 X-20S300
G1 Y0.1S0
G1 X20S300
G1 Y0.1S0
G1 X-20S300
G1 Y0.1S0
G1 X20S300
G1 Y0.1S0
G1 X-20S300
G1 Y0.1S0
G1 X20S300
G1 Y0.1S0
G1 X-20.001S300
G1 Y0.1S0
G1 X20S300
G1 Y0.1S0
G1 X-20S300
G1 Y0.1S0
G1 X20S300
G1 Y0.1S0
G1 X-20S300
G90
; Scan @ 4000.002 mm/min, 40% power
M9
G0 X51.34Y7.05
M4
; Layer C02
G91
G1 X1.667S0
G1 X20S400
G1 X1.667S0
G1 Y0.1S0
G1 X-1.667S0
G1 X-20S400
G1 X-1.667S0
G1 Y0.1S0
G1 X1.667S0
G1 X20S400
G1 X1.666S0
G1 Y0.1S0
G1 X-1.666S0
G1 X-20S400
G1 X-1.667S0
G1 Y0.1S0
G1 X1.667S0
G1 X20S400
G1 X1.666S0
G1 Y0.1S0
G1 X-1.666S0
G1 X-20S400
G1 X-1.666S0
G1 Y0.1S0
G1 X1.666S0
G1 X20S400
G1 X1.667S0
G1 Y0.1S0
G1 X-1.667S0
G1 X-20S400
G1 X-1.666S0
G1 Y0.1S0
G1 X1.666S0
G1 X20S400
G1 X1.667S0
G1 Y0.1S0
G1 X-1.667S0
G1 X-20S400
G1 X-1.666S0
G1 Y0.1S0
G1 X1.666S0
G1 X20S400
G1 X1.667S0
G1 Y0.1S0
G1 X-1.667S0
G1 X-20S400
G1 X-1.667S0
G1 Y0.1S0
G1 X1.667S0
G1 X20S400
G1 X1.667S0
G1 Y0.1S0
G1 X-1.667S0
G1 X-20S400
G1 X-1.667S0
G1 Y0.1S0
G1 X1.667S0
G1 X20S400
G1 X1.667S0
G1 Y0.1S0
G1 X-1.667S0
G1 X-20S400
G1 X-1.667S0
G1 Y0.1S0
G1 X1.667S0
G1 X20S400
G1 X1.666S0
G1 Y0.1S0
G1 X-1.666S0
G1 X-20S400
G1 X-1.667S0
G1 Y0.1S0
G1 X1.667S0
G1 X20S400
G1 X1.666S0
G1 Y0.1S0
G1 X-1.666S0
G1 X-20S400
G1 X-1.667S0
G1 Y0.1S0
G1 X1.666S0
G1 X20S400
G1 X1.667S0
G1 Y0.1S0
G1 X-1.667S0
G1 X-20S400
G1 X-1.666S0
G1 Y0.1S0
G1 X1.666S0
G1 X20S400
G1 X1.667S0
G1 Y0.1S0
G1 X-1.667S0
G1 X-20S400
G1 X-1.666S0
G1 Y0.1S0
G1 X1.666S0
G1 X20S400
G1 X1.667S0
G1 Y0.1S0
G1 X-1.667S0
G1 X-20S400
G1 X-1.667S0
G1 Y0.1S0
G1 X1.667S0
G1 X20S400
G1 X1.667S0
G1 Y0.1S0
G1 X-1.667S0
G1 X-20S400
G1 X-1.667S0
G1 Y0.1S0
G1 X1.667S0
G1 X20S400
G1 X1.667S0
G1 Y0.1S0
G1 X-1.667S0
G1 X-20S400
G1 X-1.667S0
G1 Y0.1S0
G1 X1.667S0
G1 X20S400
G1 X1.666S0
G1 Y0.1S0
G1 X-1.666S0
G1 X-20S400
G1 X-1.667S0
G1 Y0.1S0
G1 X1.667S0
G1 X20S400
G1 X1.666S0
G1 Y0.1S0
G1 X-1.666S0
G1 X-20S400
G1 X-1.667S0
G1 Y0.1S0
G1 X1.666S0
G1 X20.001S400
G1 X1.666S0
G1 Y0.1S0
G1 X-1.667S0
G1 X-20S400
G1 X-1.666S0
G1 Y0.1S0
G1 X1.666S0
G1 X20S400
G1 X1.667S0
G1 Y0.1S0
G1 X-1.667S0
G1 X-20S400
G1 X-1.666S0
G1 Y0.1S0
G1 X1.666S0
G1 X20S400
G1 X1.667S0
G1 Y0.1S0
G1 X-1.667S0
G1 X-20S400
G1 X-1.667S0
G1 Y0.1S0
G1 X1.667S0
G1 X20S400
G1 X1.667S0
G1 Y0.1S0
G1 X-1.667S0
G1 X-20S400
G1 X-1.667S0
G1 Y0.1S0
G1 X1.667S0
G1 X20S400
G1 X1.667S0
G1 Y0.1S0
G1 X-1.667S0
G1 X-20S400
G1 X-1.667S0
G1 Y0.1S0
G1 X1.667S0
G1 X20S400
G1 X1.666S0
G1 Y0.1S0
G1 X-1.666S0
G1 X-20S400
G1 X-1.667S0
G1 Y0.1S0
G1 X1.667S0
G1 X20S400
G1 X1.666S0
G1 Y0.1S0
G1 X-1.666S0
G1 X-20S400
G1 X-1.667S0
G1 Y0.1S0
G1 X1.667S0
G1 X20S400
G1 X1.666S0
G1 Y0.1S0
G1 X-1.667S0
G1 X-20S400
G1 X-1.666S0
G1 Y0.1S0
G1 X1.666S0
G1 X20S400
G1 X1.667S0
G1 Y0.1S0
G1 X-1.667S0
G1 X-20S400
G1 X-1.666S0
G1 Y0.1S0
G1 X1.666S0
G1 X20S400
G1 X1.667S0
G1 Y0.1S0
G1 X-1.667S0
G1 X-20S400
G1 X-1.666S0
G1 Y0.1S0
G1 X1.666S0
G1 X20S400
G1 X1.667S0
G1 Y0.1S0
G1 X-1.667S0
G1 X-20S400
G1 X-1.667S0
G1 Y0.1S0
G1 X1.667S0
G1 X20S400
G1 X1.667S0
G1 Y0.1S0
G1 X-1.667S0
G1 X-20S400
G1 X-1.667S0
G1 Y0.1S0
G1 X1.667S0
G1 X20S400
G1 X1.667S0
G1 Y0.1S0
G1 X-1.667S0
G1 X-20S400
G1 X-1.667S0
G1 Y0.1S0
G1 X1.667S0
G1 X20S400
G1 X1.666S0
G1 Y0.1S0
G1 X-1.666S0
G1 X-20S400
G1 X-1.667S0
G1 Y0.1S0
G1 X1.667S0
G1 X20S400
G1 X1.666S0
G1 Y0.1S0
G1 X-1.666S0
G1 X-20S400
G1 X-1.667S0
G1 Y0.1S0
G1 X1.666S0
G1 X20S400
G1 X1.667S0
G1 Y0.1S0
G1 X-1.667S0
G1 X-20S400
G1 X-1.666S0
G1 Y0.1S0
G1 X1.666S0
G1 X20S400
G1 X1.667S0
G1 Y0.1S0
G1 X-1.667S0
G1 X-20S400
G1 X-1.666S0
G1 Y0.1S0
G1 X1.666S0
G1 X20S400
G1 X1.667S0
G1 Y0.1S0
G1 X-1.667S0
G1 X-20S400
G1 X-1.667S0
G1 Y0.1S0
G1 X1.667S0
G1 X20S400
G1 X1.667S0
G1 Y0.1S0
G1 X-1.667S0
G1 X-20S400
G1 X-1.667S0
G1 Y0.1S0
G1 X1.667S0
G1 X20S400
G1 X1.667S0
G1 Y0.1S0
G1 X-1.667S0
G1 X-20S400
G1 X-1.667S0
G1 Y0.1S0
G1 X1.667S0
G1 X20S400
G1 X1.666S0
G1 Y0.1S0
G1 X-1.666S0
G1 X-20S400
G1 X-1.667S0
G1 Y0.1S0
G1 X1.667S0
G1 X20S400
G1 X1.666S0
G1 Y0.1S0
G1 X-1.666S0
G1 X-20S400
G1 X-1.667S0
G1 Y0.1S0
G1 X1.666S0
G1 X20S400
G1 X1.667S0
G1 Y0.1S0
G1 X-1.667S0
G1 X-20S400
G1 X-1.666S0
G1 Y0.1S0
G1 X1.666S0
G1 X20S400
G1 X1.667S0
G1 Y0.1S0
G1 X-1.667S0
G1 X-20S400
G1 X-1.666S0
G1 Y0.1S0
G1 X1.666S0
G1 X20S400
G1 X1.667S0
G1 Y0.1S0
G1 X-1.667S0
G1 X-20S400
G1 X-1.667S0
G1 Y0.1S0
G1 X1.667S0
G1 X20S400
G1 X1.667S0
G1 Y0.1S0
G1 X-1.667S0
G1 X-20S400
G1 X-1.667S0
G1 Y0.1S0
G1 X1.667S0
G1 X20S400
G1 X1.667S0
G1 Y0.1S0
G1 X-1.667S0
G1 X-20S400
G1 X-1.667S0
G1 Y0.1S0
G1 X1.667S0
G1 X20S400
G1 X1.666S0
G1 Y0.1S0
G1 X-1.666S0
G1 X-20S400
G1 X-1.667S0
G1 Y0.1S0
G1 X1.667S0
G1 X20S400
G1 X1.666S0
G1 Y0.1S0
G1 X-1.666S0
G1 X-20S400
G1 X-1.667S0
G1 Y0.1S0
G1 X1.667S0
G1 X20S400
G1 X1.666S0
G1 Y0.1S0
G1 X-1.667S0
G1 X-20S400
G1 X-1.666S0
G1 Y0.1S0
G1 X1.666S0
G1 X20S400
G1 X1.667S0
G1 Y0.1S0
G1 X-1.667S0
G1 X-20S400
G1 X-1.666S0
G1 Y0.1S0
G1 X1.666S0
G1 X20S400
G1 X1.667S0
G1 Y0.1S0
G1 X-1.667S0
G1 X-20S400
G1 X-1.666S0
G1 Y0.1S0
G1 X1.666S0
G1 X20S400
G1 X1.667S0
G1 Y0.1S0
G1 X-1.667S0
G1 X-20S400
G1 X-1.667S0
G1 Y0.1S0
G1 X1.667S0
G1 X20S400
G1 X1.667S0
G1 Y0.1S0
G1 X-1.667S0
G1 X-20S400
G1 X-1.667S0
G1 Y0.1S0
G1 X1.667S0
G1 X20S400
G1 X1.667S0
G1 Y0.1S0
G1 X-1.667S0
G1 X-20S400
G1 X-1.667S0
G1 Y0.1S0
G1 X1.667S0
G1 X20S400
G1 X1.666S0
G1 Y0.1S0
G1 X-1.666S0
G1 X-20S400
G1 X-1.667S0
G1 Y0.1S0
G1 X1.667S0
G1 X20S400
G1 X1.666S0
G1 Y0.1S0
G1 X-1.667S0
G1 X-20S400
G1 X-1.666S0
G1 Y0.1S0
G1 X1.666S0
G1 X20S400
G1 X1.667S0
G1 Y0.1S0
G1 X-1.667S0
G1 X-20S400
G1 X-1.666S0
G1 Y0.1S0
G1 X1.666S0
G1 X20S400
G1 X1.667S0
G1 Y0.1S0
G1 X-1.667S0
G1 X-20S400
G1 X-1.666S0
G1 Y0.1S0
G1 X1.666S0
G1 X20S400
G1 X1.667S0
G1 Y0.1S0
G1 X-1.667S0
G1 X-20S400
G1 X-1.667S0
G1 Y0.1S0
G1 X1.667S0
G1 X20S400
G1 X1.667S0
G1 Y0.1S0
G1 X-1.667S0
G1 X-20S400
G1 X-1.667S0
G1 Y0.1S0
G1 X1.667S0
G1 X20S400
G1 X1.667S0
G1 Y0.1S0
G1 X-1.667S0
G1 X-20S400
G1 X-1.667S0
G1 Y0.1S0
G1 X1.667S0
G1 X20S400
G1 X1.666S0
G1 Y0.1S0
G1 X-1.666S0
G1 X-20S400
G1 X-1.667S0
G1 Y0.1S0
G1 X1.667S0
G1 X20S400
G1 X1.666S0
G1 Y0.1S0
G1 X-1.666S0
G1 X-20S400
G1 X-1.667S0
G1 Y0.1S0
G1 X1.666S0
G1 X20S400
G1 X1.667S0
G1 Y0.1S0
G1 X-1.667S0
G1 X-20S400
G1 X-1.666S0
G1 Y0.1S0
G1 X1.666S0
G1 X20S400
G1 X1.667S0
G1 Y0.1S0
G1 X-1.667S0
G1 X-20S400
G1 X-1.666S0
G1 Y0.1S0
G1 X1.666S0
G1 X20S400
G1 X1.667S0
G1 Y0.1S0
G1 X-1.667S0
G1 X-20S400
G1 X-1.667S0
G1 Y0.1S0
G1 X1.667S0
G1 X20S400
G1 X1.667S0
G1 Y0.1S0
G1 X-1.667S0
G1 X-20S400
G1 X-1.667S0
G1 Y0.1S0
G1 X1.667S0
G1 X20S400
G1 X1.667S0
G1 Y0.1S0
G1 X-1.667S0
G1 X-20S400
G1 X-1.667S0
G1 Y0.1S0
G1 X1.667S0
G1 X20S400
G1 X1.666S0
G1 Y0.1S0
G1 X-1.666S0
G1 X-20S400
G1 X-1.667S0
G1 Y0.1S0
G1 X1.667S0
G1 X20S400
G1 X1.666S0
G1 Y0.1S0
G1 X-1.666S0
G1 X-20S400
G1 X-1.667S0
G1 Y0.1S0
G1 X1.666S0
G1 X20S400
G1 X1.667S0
G1 Y0.1S0
G1 X-1.667S0
G1 X-20S400
G1 X-1.666S0
G1 Y0.1S0
G1 X1.666S0
G1 X20S400
G1 X1.667S0
G1 Y0.1S0
G1 X-1.667S0
G1 X-20S400
G1 X-1.666S0
G1 Y0.1S0
G1 X1.666S0
G1 X20S400
G1 X1.667S0
G1 Y0.1S0
G1 X-1.667S0
G1 X-20S400
G1 X-1.667S0
G1 Y0.1S0
G1 X1.667S0
G1 X20S400
G1 X1.667S0
G1 Y0.1S0
G1 X-1.667S0
G1 X-20S400
G1 X-1.667S0
G1 Y0.1S0
G1 X1.667S0
G1 X20S400
G1 X1.667S0
G1 Y0.1S0
G1 X-1.667S0
G1 X-20S400
G1 X-1.667S0
G1 Y0.1S0
G1 X1.667S0
G1 X20S400
G1 X1.666S0
G1 Y0.1S0
G1 X-1.666S0
G1 X-20S400
G1 X-1.667S0
G1 Y0.1S0
G1 X1.667S0
G1 X20S400
G1 X1.666S0
G1 Y0.1S0
G1 X-1.666S0
G1 X-20S400
G1 X-1.667S0
G1 Y0.1S0
G1 X1.667S0
G1 X20S400
G1 X1.666S0
G1 Y0.1S0
G1 X-1.667S0
G1 X-20S400
G1 X-1.666S0
G1 Y0.1S0
G1 X1.666S0
G1 X20S400
G1 X1.667S0
G1 Y0.1S0
G1 X-1.667S0
G1 X-20S400
G1 X-1.666S0
G1 Y0.1S0
G1 X1.666S0
G1 X20S400
G1 X1.667S0
G1 Y0.1S0
G1 X-1.667S0
G1 X-20S400
G1 X-1.666S0
G1 Y0.1S0
G1 X1.666S0
G1 X20S400
G1 X1.667S0
G1 Y0.1S0
G1 X-1.667S0
G1 X-20S400
G1 X-1.667S0
G1 Y0.1S0
G1 X1.667S0
G1 X20S400
G1 X1.667S0
G1 Y0.1S0
G1 X-1.667S0
G1 X-20S400
G1 X-1.667S0
G1 Y0.1S0
G1 X1.667S0
G1 X20S400
G1 X1.667S0
G1 Y0.1S0
G1 X-1.667S0
G1 X-20S400
G1 X-1.667S0
G1 Y0.1S0
G1 X1.667S0
G1 X20S400
G1 X1.666S0
G1 Y0.1S0
G1 X-1.666S0
G1 X-20S400
G1 X-1.667S0
G1 Y0.1S0
G1 X1.667S0
G1 X20S400
G1 X1.666S0
G1 Y0.1S0
G1 X-1.667S0
G1 X-20S400
G1 X-1.666S0
G1 Y0.1S0
G1 X1.666S0
G1 X20S400
G1 X1.667S0
G1 Y0.1S0
G1 X-1.667S0
G1 X-20S400
G1 X-1.666S0
G1 Y0.1S0
G1 X1.666S0
G1 X20S400
G1 X1.667S0
G1 Y0.1S0
G1 X-1.667S0
G1 X-20S400
G1 X-1.666S0
G1 Y0.1S0
G1 X1.666S0
G1 X20S400
G1 X1.667S0
G1 Y0.1S0
G1 X-1.667S0
G1 X-20S400
G1 X-1.667S0
G1 Y0.1S0
G1 X1.667S0
G1 X20S400
G1 X1.667S0
G1 Y0.1S0
G1 X-1.667S0
G1 X-20S400
G1 X-1.667S0
G1 Y0.1S0
G1 X1.667S0
G1 X20S400
G1 X1.667S0
G1 Y0.1S0
G1 X-1.667S0
G1 X-20S400
G1 X-1.667S0
G1 Y0.1S0
G1 X1.667S0
G1 X20S400
G1 X1.666S0
G1 Y0.1S0
G1 X-1.666S0
G1 X-20S400
G1 X-1.667S0
G1 Y0.1S0
G1 X1.667S0
G1 X20S400
G1 X1.666S0
G1 Y0.1S0
G1 X-1.666S0
G1 X-20S400
G1 X-1.667S0
G1 Y0.1S0
G1 X1.666S0
G1 X20S400
G1 X1.667S0
G1 Y0.1S0
G1 X-1.667S0
G1 X-20S400
G1 X-1.666S0
G1 Y0.1S0
G1 X1.666S0
G1 X20S400
G1 X1.667S0
G1 Y0.1S0
G1 X-1.667S0
G1 X-20S400
G1 X-1.666S0
G1 Y0.1S0
G1 X1.666S0
G1 X20S400
G1 X1.667S0
G1 Y0.1S0
G1 X-1.667S0
G1 X-20S400
G1 X-1.667S0
G1 Y0.1S0
G1 X1.667S0
G1 X20S400
G1 X1.667S0
G1 Y0.1S0
G1 X-1.667S0
G1 X-20S400
G1 X-1.667S0
G1 Y0.1S0
G1 X1.667S0
G1 X20S400
G1 X1.667S0
G1 Y0.1S0
G1 X-1.667S0
G1 X-20S400
G1 X-1.667S0
G1 Y0.1S0
G1 X1.667S0
G1 X20S400
G1 X1.666S0
G1 Y0.1S0
G1 X-1.666S0
G1 X-20S400
G1 X-1.667S0
G1 Y0.1S0
G1 X1.667S0
G1 X20S400
G1 X1.666S0
G1 Y0.1S0
G1 X-1.666S0
G1 X-20S400
G1 X-1.667S0
G1 Y0.1S0
G1 X1.667S0
G1 X20S400
G1 X1.666S0
G1 Y0.1S0
G1 X-1.667S0
G1 X-20S400
G1 X-1.666S0
G1 Y0.1S0
G1 X1.666S0
G1 X20S400
G1 X1.667S0
G1 Y0.1S0
G1 X-1.667S0
G1 X-20S400
G1 X-1.666S0
G1 Y0.1S0
G1 X1.666S0
G1 X20S400
G1 X1.667S0
G1 Y0.1S0
G1 X-1.667S0
G1 X-20S400
G1 X-1.667S0
G90
; Scan @ 4000 mm/min, 50% power
M9
G0 X74.34Y7.066
; Layer C04
G91
G1 X1.667S0
G1 X20S500
G1 X1.667S0
G1 Y0.1S0
G1 X-1.667S0
G1 X-20S500
G1 X-1.667S0
G1 Y0.1S0
G1 X1.667S0
G1 X20S500
G1 X1.666S0
G1 Y0.1S0
G1 X-1.666S0
G1 X-20S500
G1 X-1.667S0
G1 Y0.1S0
G1 X1.667S0
G1 X20S500
G1 X1.666S0
G1 Y0.1S0
G1 X-1.667S0
G1 X-20S500
G1 X-1.666S0
G1 Y0.1S0
G1 X1.666S0
G1 X20S500
G1 X1.667S0
G1 Y0.1S0
G1 X-1.667S0
G1 X-20S500
G1 X-1.666S0
G1 Y0.1S0
G1 X1.666S0
G1 X20S500
G1 X1.667S0
G1 Y0.1S0
G1 X-1.667S0
G1 X-20S500
G1 X-1.666S0
G1 Y0.1S0
G1 X1.666S0
G1 X20S500
G1 X1.667S0
G1 Y0.1S0
G1 X-1.667S0
G1 X-20S500
G1 X-1.667S0
G1 Y0.1S0
G1 X1.667S0
G1 X20S500
G1 X1.667S0
G1 Y0.1S0
G1 X-1.667S0
G1 X-20S500
G1 X-1.667S0
G1 Y0.1S0
G1 X1.667S0
G1 X20S500
G1 X1.667S0
G1 Y0.1S0
G1 X-1.667S0
G1 X-20S500
G1 X-1.667S0
G1 Y0.1S0
G1 X1.667S0
G1 X20S500
G1 X1.666S0
G1 Y0.1S0
G1 X-1.666S0
G1 X-20S500
G1 X-1.667S0
G1 Y0.1S0
G1 X1.667S0
G1 X20S500
G1 X1.666S0
G1 Y0.1S0
G1 X-1.666S0
G1 X-20S500
G1 X-1.667S0
G1 Y0.1S0
G1 X1.666S0
G1 X20S500
G1 X1.667S0
G1 Y0.1S0
G1 X-1.667S0
G1 X-20S500
G1 X-1.666S0
G1 Y0.1S0
G1 X1.666S0
G1 X20S500
G1 X1.667S0
G1 Y0.1S0
G1 X-1.667S0
G1 X-20S500
G1 X-1.666S0
G1 Y0.1S0
G1 X1.666S0
G1 X20S500
G1 X1.667S0
G1 Y0.1S0
G1 X-1.667S0
G1 X-20S500
G1 X-1.667S0
G1 Y0.1S0
G1 X1.667S0
G1 X20S500
G1 X1.667S0
G1 Y0.1S0
G1 X-1.667S0
G1 X-20S500
G1 X-1.667S0
G1 Y0.1S0
G1 X1.667S0
G1 X20S500
G1 X1.667S0
G1 Y0.1S0
G1 X-1.667S0
G1 X-20S500
G1 X-1.667S0
G1 Y0.1S0
G1 X1.667S0
G1 X20S500
G1 X1.666S0
G1 Y0.1S0
G1 X-1.666S0
G1 X-20S500
G1 X-1.667S0
G1 Y0.1S0
G1 X1.667S0
G1 X20S500
G1 X1.666S0
G1 Y0.1S0
G1 X-1.666S0
G1 X-20S500
G1 X-1.667S0
G1 Y0.1S0
G1 X1.666S0
G1 X20.001S500
G1 X1.666S0
G1 Y0.1S0
G1 X-1.667S0
G1 X-20S500
G1 X-1.666S0
G1 Y0.1S0
G1 X1.666S0
G1 X20S500
G1 X1.667S0
G1 Y0.1S0
G1 X-1.667S0
G1 X-20S500
G1 X-1.666S0
G1 Y0.1S0
G1 X1.666S0
G1 X20S500
G1 X1.667S0
G1 Y0.1S0
G1 X-1.667S0
G1 X-20S500
G1 X-1.667S0
G1 Y0.1S0
G1 X1.667S0
G1 X20S500
G1 X1.667S0
G1 Y0.1S0
G1 X-1.667S0
G1 X-20S500
G1 X-1.667S0
G1 Y0.1S0
G1 X1.667S0
G1 X20S500
G1 X1.667S0
G1 Y0.1S0
G1 X-1.667S0
G1 X-20S500
G1 X-1.667S0
G1 Y0.1S0
G1 X1.667S0
G1 X20S500
G1 X1.666S0
G1 Y0.1S0
G1 X-1.666S0
G1 X-20S500
G1 X-1.667S0
G1 Y0.1S0
G1 X1.667S0
G1 X20S500
G1 X1.666S0
G1 Y0.1S0
G1 X-1.666S0
G1 X-20S500
G1 X-1.667S0
G1 Y0.1S0
G1 X1.667S0
G1 X20S500
G1 X1.666S0
G1 Y0.1S0
G1 X-1.667S0
G1 X-20S500
G1 X-1.666S0
G1 Y0.1S0
G1 X1.666S0
G1 X20S500
G1 X1.667S0
G1 Y0.1S0
G1 X-1.667S0
G1 X-20S500
G1 X-1.666S0
G1 Y0.1S0
G1 X1.666S0
G1 X20S500
G1 X1.667S0
G1 Y0.1S0
G1 X-1.667S0
G1 X-20S500
G1 X-1.666S0
G1 Y0.1S0
G1 X1.666S0
G1 X20S500
G1 X1.667S0
G1 Y0.1S0
G1 X-1.667S0
G1 X-20S500
G1 X-1.667S0
G1 Y0.1S0
G1 X1.667S0
G1 X20S500
G1 X1.667S0
G1 Y0.1S0
G1 X-1.667S0
G1 X-20S500
G1 X-1.667S0
G1 Y0.1S0
G1 X1.667S0
G1 X20S500
G1 X1.667S0
G1 Y0.1S0
G1 X-1.667S0
G1 X-20S500
G1 X-1.667S0
G1 Y0.1S0
G1 X1.667S0
G1 X20S500
G1 X1.666S0
G1 Y0.1S0
G1 X-1.666S0
G1 X-20S500
G1 X-1.667S0
G1 Y0.1S0
G1 X1.667S0
G1 X20S500
G1 X1.666S0
G1 Y0.1S0
G1 X-1.666S0
G1 X-20.001S500
G1 X-1.666S0
G1 Y0.1S0
G1 X1.666S0
G1 X20S500
G1 X1.667S0
G1 Y0.1S0
G1 X-1.667S0
G1 X-20S500
G1 X-1.666S0
G1 Y0.1S0
G1 X1.666S0
G1 X20S500
G1 X1.667S0
G1 Y0.1S0
G1 X-1.667S0
G1 X-20S500
G1 X-1.666S0
G1 Y0.1S0
G1 X1.666S0
G1 X20S500
G1 X1.667S0
G1 Y0.1S0
G1 X-1.667S0
G1 X-20S500
G1 X-1.667S0
G1 Y0.1S0
G1 X1.667S0
G1 X20S500
G1 X1.667S0
G1 Y0.1S0
G1 X-1.667S0
G1 X-20S500
G1 X-1.667S0
G1 Y0.1S0
G1 X1.667S0
G1 X20S500
G1 X1.667S0
G1 Y0.1S0
G1 X-1.667S0
G1 X-20S500
G1 X-1.667S0
G1 Y0.1S0
G1 X1.667S0
G1 X20S500
G1 X1.666S0
G1 Y0.1S0
G1 X-1.666S0
G1 X-20S500
G1 X-1.667S0
G1 Y0.1S0
G1 X1.667S0
G1 X20S500
G1 X1.666S0
G1 Y0.1S0
G1 X-1.666S0
G1 X-20S500
G1 X-1.667S0
G1 Y0.1S0
G1 X1.666S0
G1 X20S500
G1 X1.667S0
G1 Y0.1S0
G1 X-1.667S0
G1 X-20S500
G1 X-1.666S0
G1 Y0.1S0
G1 X1.666S0
G1 X20S500
G1 X1.667S0
G1 Y0.1S0
G1 X-1.667S0
G1 X-20S500
G1 X-1.666S0
G1 Y0.1S0
G1 X1.666S0
G1 X20S500
G1 X1.667S0
G1 Y0.1S0
G1 X-1.667S0
G1 X-20S500
G1 X-1.667S0
G1 Y0.1S0
G1 X1.667S0
G1 X20S500
G1 X1.667S0
G1 Y0.1S0
G1 X-1.667S0
G1 X-20S500
G1 X-1.667S0
G1 Y0.1S0
G1 X1.667S0
G1 X20S500
G1 X1.667S0
G1 Y0.1S0
G1 X-1.667S0
G1 X-20S500
G1 X-1.667S0
G1 Y0.1S0
G1 X1.667S0
G1 X20S500
G1 X1.666S0
G1 Y0.1S0
G1 X-1.666S0
G1 X-20S500
G1 X-1.667S0
G1 Y0.1S0
G1 X1.667S0
G1 X20S500
G1 X1.666S0
G1 Y0.1S0
G1 X-1.666S0
G1 X-20S500
G1 X-1.667S0
G1 Y0.1S0
G1 X1.667S0
G1 X20S500
G1 X1.666S0
G1 Y0.1S0
G1 X-1.667S0
G1 X-20S500
G1 X-1.666S0
G1 Y0.1S0
G1 X1.666S0
G1 X20S500
G1 X1.667S0
G1 Y0.1S0
G1 X-1.667S0
G1 X-20S500
G1 X-1.666S0
G1 Y0.1S0
G1 X1.666S0
G1 X20S500
G1 X1.667S0
G1 Y0.1S0
G1 X-1.667S0
G1 X-20S500
G1 X-1.666S0
G1 Y0.1S0
G1 X1.667S0
G1 X20S500
G1 X1.667S0
G1 Y0.1S0
G1 X-1.667S0
G1 X-20S500
G1 X-1.667S0
G1 Y0.1S0
G1 X1.667S0
G1 X20S500
G1 X1.667S0
G1 Y0.1S0
G1 X-1.667S0
G1 X-20S500
G1 X-1.667S0
G1 Y0.1S0
G1 X1.667S0
G1 X20S500
G1 X1.666S0
G1 Y0.1S0
G1 X-1.666S0
G1 X-20S500
G1 X-1.667S0
G1 Y0.1S0
G1 X1.667S0
G1 X20S500
G1 X1.666S0
G1 Y0.1S0
G1 X-1.666S0
G1 X-20S500
G1 X-1.667S0
G1 Y0.1S0
G1 X1.667S0
G1 X20S500
G1 X1.666S0
G1 Y0.1S0
G1 X-1.667S0
G1 X-20S500
G1 X-1.666S0
G1 Y0.1S0
G1 X1.666S0
G1 X20S500
G1 X1.667S0
G1 Y0.1S0
G1 X-1.667S0
G1 X-20S500
G1 X-1.666S0
G1 Y0.1S0
G1 X1.666S0
G1 X20S500
G1 X1.667S0
G1 Y0.1S0
G1 X-1.667S0
G1 X-20S500
G1 X-1.666S0
G1 Y0.1S0
G1 X1.666S0
G1 X20S500
G1 X1.667S0
G1 Y0.1S0
G1 X-1.667S0
G1 X-20S500
G1 X-1.667S0
G1 Y0.1S0
G1 X1.667S0
G1 X20S500
G1 X1.667S0
G1 Y0.1S0
G1 X-1.667S0
G1 X-20S500
G1 X-1.667S0
G1 Y0.1S0
G1 X1.667S0
G1 X20S500
G1 X1.667S0
G1 Y0.1S0
G1 X-1.667S0
G1 X-20S500
G1 X-1.667S0
G1 Y0.1S0
G1 X1.667S0
G1 X20S500
G1 X1.666S0
G1 Y0.1S0
G1 X-1.666S0
G1 X-20S500
G1 X-1.667S0
G1 Y0.1S0
G1 X1.667S0
G1 X20S500
G1 X1.666S0
G1 Y0.1S0
G1 X-1.666S0
G1 X-20S500
G1 X-1.667S0
G1 Y0.1S0
G1 X1.666S0
G1 X20S500
G1 X1.667S0
G1 Y0.1S0
G1 X-1.667S0
G1 X-20S500
G1 X-1.666S0
G1 Y0.1S0
G1 X1.666S0
G1 X20S500
G1 X1.667S0
G1 Y0.1S0
G1 X-1.667S0
G1 X-20S500
G1 X-1.666S0
G1 Y0.1S0
G1 X1.666S0
G1 X20S500
G1 X1.667S0
G1 Y0.1S0
G1 X-1.667S0
G1 X-20S500
G1 X-1.667S0
G1 Y0.1S0
G1 X1.667S0
G1 X20S500
G1 X1.667S0
G1 Y0.1S0
G1 X-1.667S0
G1 X-20S500
G1 X-1.667S0
G1 Y0.1S0
G1 X1.667S0
G1 X20S500
G1 X1.667S0
G1 Y0.1S0
G1 X-1.667S0
G1 X-20S500
G1 X-1.667S0
G1 Y0.1S0
G1 X1.667S0
G1 X20S500
G1 X1.666S0
G1 Y0.1S0
G1 X-1.666S0
G1 X-20S500
G1 X-1.667S0
G1 Y0.1S0
G1 X1.667S0
G1 X20S500
G1 X1.666S0
G1 Y0.1S0
G1 X-1.666S0
G1 X-20S500
G1 X-1.667S0
G1 Y0.1S0
G1 X1.666S0
G1 X20S500
G1 X1.667S0
G1 Y0.1S0
G1 X-1.667S0
G1 X-20S500
G1 X-1.666S0
G1 Y0.1S0
G1 X1.666S0
G1 X20S500
G1 X1.667S0
G1 Y0.1S0
G1 X-1.667S0
G1 X-20S500
G1 X-1.666S0
G1 Y0.1S0
G1 X1.666S0
G1 X20S500
G1 X1.667S0
G1 Y0.1S0
G1 X-1.667S0
G1 X-20S500
G1 X-1.667S0
G1 Y0.1S0
G1 X1.667S0
G1 X20S500
G1 X1.667S0
G1 Y0.1S0
G1 X-1.667S0
G1 X-20S500
G1 X-1.667S0
G1 Y0.1S0
G1 X1.667S0
G1 X20S500
G1 X1.667S0
G1 Y0.1S0
G1 X-1.667S0
G1 X-20S500
G1 X-1.667S0
G1 Y0.1S0
G1 X1.667S0
G1 X20S500
G1 X1.666S0
G1 Y0.1S0
G1 X-1.666S0
G1 X-20S500
G1 X-1.667S0
G1 Y0.1S0
G1 X1.667S0
G1 X20S500
G1 X1.666S0
G1 Y0.1S0
G1 X-1.666S0
G1 X-20S500
G1 X-1.667S0
G1 Y0.1S0
G1 X1.667S0
G1 X20S500
G1 X1.666S0
G1 Y0.1S0
G1 X-1.667S0
G1 X-20S500
G1 X-1.666S0
G1 Y0.1S0
G1 X1.666S0
G1 X20S500
G1 X1.667S0
G1 Y0.1S0
G1 X-1.667S0
G1 X-20S500
G1 X-1.666S0
G1 Y0.1S0
G1 X1.666S0
G1 X20S500
G1 X1.667S0
G1 Y0.1S0
G1 X-1.667S0
G1 X-20S500
G1 X-1.666S0
G1 Y0.1S0
G1 X1.666S0
G1 X20S500
G1 X1.667S0
G1 Y0.1S0
G1 X-1.667S0
G1 X-20S500
G1 X-1.667S0
G1 Y0.1S0
G1 X1.667S0
G1 X20S500
G1 X1.667S0
G1 Y0.1S0
G1 X-1.667S0
G1 X-20S500
G1 X-1.667S0
G1 Y0.1S0
G1 X1.667S0
G1 X20S500
G1 X1.667S0
G1 Y0.1S0
G1 X-1.667S0
G1 X-20S500
G1 X-1.667S0
G1 Y0.1S0
G1 X1.667S0
G1 X20S500
G1 X1.666S0
G1 Y0.1S0
G1 X-1.666S0
G1 X-20S500
G1 X-1.667S0
G1 Y0.1S0
G1 X1.667S0
G1 X20S500
G1 X1.666S0
G1 Y0.1S0
G1 X-1.666S0
G1 X-20.001S500
G1 X-1.666S0
G1 Y0.1S0
G1 X1.666S0
G1 X20S500
G1 X1.667S0
G1 Y0.1S0
G1 X-1.667S0
G1 X-20S500
G1 X-1.666S0
G1 Y0.1S0
G1 X1.666S0
G1 X20S500
G1 X1.667S0
G1 Y0.1S0
G1 X-1.667S0
G1 X-20S500
G1 X-1.666S0
G1 Y0.1S0
G1 X1.666S0
G1 X20S500
G1 X1.667S0
G1 Y0.1S0
G1 X-1.667S0
G1 X-20S500
G1 X-1.667S0
G1 Y0.1S0
G1 X1.667S0
G1 X20S500
G1 X1.667S0
G1 Y0.1S0
G1 X-1.667S0
G1 X-20S500
G1 X-1.667S0
G1 Y0.1S0
G1 X1.667S0
G1 X20S500
G1 X1.667S0
G1 Y0.1S0
G1 X-1.667S0
G1 X-20S500
G1 X-1.667S0
G1 Y0.1S0
G1 X1.667S0
G1 X20S500
G1 X1.666S0
G1 Y0.1S0
G1 X-1.666S0
G1 X-20S500
G1 X-1.667S0
G1 Y0.1S0
G1 X1.667S0
G1 X20S500
G1 X1.666S0
G1 Y0.1S0
G1 X-1.666S0
G1 X-20S500
G1 X-1.667S0
G1 Y0.1S0
G1 X1.666S0
G1 X20S500
G1 X1.667S0
G1 Y0.1S0
G1 X-1.667S0
G1 X-20S500
G1 X-1.666S0
G1 Y0.1S0
G1 X1.666S0
G1 X20S500
G1 X1.667S0
G1 Y0.1S0
G1 X-1.667S0
G1 X-20S500
G1 X-1.666S0
G1 Y0.1S0
G1 X1.666S0
G1 X20S500
G1 X1.667S0
G1 Y0.1S0
G1 X-1.667S0
G1 X-20S500
G1 X-1.667S0
G1 Y0.1S0
G1 X1.667S0
G1 X20S500
G1 X1.667S0
G1 Y0.1S0
G1 X-1.667S0
G1 X-20S500
G1 X-1.667S0
G1 Y0.1S0
G1 X1.667S0
G1 X20S500
G1 X1.667S0
G1 Y0.1S0
G1 X-1.667S0
G1 X-20S500
G1 X-1.667S0
G1 Y0.1S0
G1 X1.667S0
G1 X20S500
G1 X1.666S0
G1 Y0.1S0
G1 X-1.666S0
G1 X-20S500
G1 X-1.667S0
G1 Y0.1S0
G1 X1.667S0
G1 X20S500
G1 X1.666S0
G1 Y0.1S0
G1 X-1.666S0
G1 X-20S500
G1 X-1.667S0
G1 Y0.1S0
G1 X1.666S0
G1 X20.001S500
G1 X1.666S0
G1 Y0.1S0
G1 X-1.667S0
G1 X-20S500
G1 X-1.666S0
G1 Y0.1S0
G1 X1.666S0
G1 X20S500
G1 X1.667S0
G1 Y0.1S0
G1 X-1.667S0
G1 X-20S500
G1 X-1.666S0
G1 Y0.1S0
G1 X1.666S0
G1 X20S500
G1 X1.667S0
G1 Y0.1S0
G1 X-1.667S0
G1 X-20S500
G1 X-1.667S0
G90
; Scan @ 4000 mm/min, 60% power
M9
G0 X97.34Y7.082
; Layer C05 Pass 1 of 5
G91
G1 X1.667S0
G1 X20S600
G1 X1.666S0
G1 Y0.1S0
G1 X-1.666S0
G1 X-20S600
G1 X-1.667S0
G1 Y0.1S0
G1 X1.667S0
G1 X20S600
G1 X1.666S0
G1 Y0.1S0
G1 X-1.666S0
G1 X-20S600
G1 X-1.667S0
G1 Y0.1S0
G1 X1.667S0
G1 X20S600
G1 X1.666S0
G1 Y0.1S0
G1 X-1.667S0
G1 X-20S600
G1 X-1.666S0
G1 Y0.1S0
G1 X1.666S0
G1 X20S600
G1 X1.667S0
G1 Y0.1S0
G1 X-1.667S0
G1 X-20S600
G1 X-1.666S0
G1 Y0.1S0
G1 X1.666S0
G1 X20S600
G1 X1.667S0
G1 Y0.1S0
G1 X-1.667S0
G1 X-20S600
G1 X-1.666S0
G1 Y0.1S0
G1 X1.666S0
G1 X20S600
G1 X1.667S0
G1 Y0.1S0
G1 X-1.667S0
G1 X-20S600
G1 X-1.667S0
G1 Y0.1S0
G1 X1.667S0
G1 X20S600
G1 X1.667S0
G1 Y0.1S0
G1 X-1.667S0
G1 X-20S600
G1 X-1.667S0
G1 Y0.1S0
G1 X1.667S0
G1 X20S600
G1 X1.667S0
G1 Y0.1S0
G1 X-1.667S0
G1 X-20S600
G1 X-1.667S0
G1 Y0.1S0
G1 X1.667S0
G1 X20S600
G1 X1.666S0
G1 Y0.1S0
G1 X-1.666S0
G1 X-20S600
G1 X-1.667S0
G1 Y0.1S0
G1 X1.667S0
G1 X20S600
G1 X1.666S0
G1 Y0.1S0
G1 X-1.666S0
G1 X-20S600
G1 X-1.667S0
G1 Y0.1S0
G1 X1.666S0
G1 X20S600
G1 X1.667S0
G1 Y0.1S0
G1 X-1.667S0
G1 X-20S600
G1 X-1.666S0
G1 Y0.1S0
G1 X1.666S0
G1 X20S600
G1 X1.667S0
G1 Y0.1S0
G1 X-1.667S0
G1 X-20S600
G1 X-1.666S0
G1 Y0.1S0
G1 X1.666S0
G1 X20S600
G1 X1.667S0
G1 Y0.1S0
G1 X-1.667S0
G1 X-20S600
G1 X-1.667S0
G1 Y0.1S0
G1 X1.667S0
G1 X20S600
G1 X1.667S0
G1 Y0.1S0
G1 X-1.667S0
G1 X-20S600
G1 X-1.667S0
G1 Y0.1S0
G1 X1.667S0
G1 X20S600
G1 X1.667S0
G1 Y0.1S0
G1 X-1.667S0
G1 X-20S600
G1 X-1.667S0
G1 Y0.1S0
G1 X1.667S0
G1 X20S600
G1 X1.666S0
G1 Y0.1S0
G1 X-1.666S0
G1 X-20S600
G1 X-1.667S0
G1 Y0.1S0
G1 X1.667S0
G1 X20S600
G1 X1.666S0
G1 Y0.1S0
G1 X-1.666S0
G1 X-20S600
G1 X-1.667S0
G1 Y0.1S0
G1 X1.666S0
G1 X20S600
G1 X1.667S0
G1 Y0.1S0
G1 X-1.667S0
G1 X-20S600
G1 X-1.666S0
G1 Y0.1S0
G1 X1.666S0
G1 X20S600
G1 X1.667S0
G1 Y0.1S0
G1 X-1.667S0
G1 X-20S600
G1 X-1.666S0
G1 Y0.1S0
G1 X1.666S0
G1 X20S600
G1 X1.667S0
G1 Y0.1S0
G1 X-1.667S0
G1 X-20S600
G1 X-1.667S0
G1 Y0.1S0
G1 X1.667S0
G1 X20S600
G1 X1.667S0
G1 Y0.1S0
G1 X-1.667S0
G1 X-20S600
G1 X-1.667S0
G1 Y0.1S0
G1 X1.667S0
G1 X20S600
G1 X1.667S0
G1 Y0.1S0
G1 X-1.667S0
G1 X-20S600
G1 X-1.667S0
G1 Y0.1S0
G1 X1.667S0
G1 X20S600
G1 X1.666S0
G1 Y0.1S0
G1 X-1.666S0
G1 X-20S600
G1 X-1.667S0
G1 Y0.1S0
G1 X1.667S0
G1 X20S600
G1 X1.666S0
G1 Y0.1S0
G1 X-1.666S0
G1 X-20S600
G1 X-1.667S0
G1 Y0.1S0
G1 X1.667S0
G1 X20S600
G1 X1.666S0
G1 Y0.1S0
G1 X-1.667S0
G1 X-20S600
G1 X-1.666S0
G1 Y0.1S0
G1 X1.666S0
G1 X20S600
G1 X1.667S0
G1 Y0.1S0
G1 X-1.667S0
G1 X-20S600
G1 X-1.666S0
G1 Y0.1S0
G1 X1.666S0
G1 X20S600
G1 X1.667S0
G1 Y0.1S0
G1 X-1.667S0
G1 X-20S600
G1 X-1.667S0
G1 Y0.1S0
G1 X1.667S0
G1 X20S600
G1 X1.667S0
G1 Y0.1S0
G1 X-1.667S0
G1 X-20S600
G1 X-1.667S0
G1 Y0.1S0
G1 X1.667S0
G1 X20S600
G1 X1.667S0
G1 Y0.1S0
G1 X-1.667S0
G1 X-20S600
G1 X-1.667S0
G1 Y0.1S0
G1 X1.667S0
G1 X20S600
G1 X1.666S0
G1 Y0.1S0
G1 X-1.666S0
G1 X-20S600
G1 X-1.667S0
G1 Y0.1S0
G1 X1.667S0
G1 X20S600
G1 X1.666S0
G1 Y0.1S0
G1 X-1.666S0
G1 X-20S600
G1 X-1.667S0
G1 Y0.1S0
G1 X1.667S0
G1 X20S600
G1 X1.666S0
G1 Y0.1S0
G1 X-1.667S0
G1 X-20S600
G1 X-1.666S0
G1 Y0.1S0
G1 X1.666S0
G1 X20S600
G1 X1.667S0
G1 Y0.1S0
G1 X-1.667S0
G1 X-20S600
G1 X-1.666S0
G1 Y0.1S0
G1 X1.666S0
G1 X20S600
G1 X1.667S0
G1 Y0.1S0
G1 X-1.667S0
G1 X-20S600
G1 X-1.666S0
G1 Y0.1S0
G1 X1.666S0
G1 X20S600
G1 X1.667S0
G1 Y0.1S0
G1 X-1.667S0
G1 X-20S600
G1 X-1.667S0
G1 Y0.1S0
G1 X1.667S0
G1 X20S600
G1 X1.667S0
G1 Y0.1S0
G1 X-1.667S0
G1 X-20S600
G1 X-1.667S0
G1 Y0.1S0
G1 X1.667S0
G1 X20S600
G1 X1.667S0
G1 Y0.1S0
G1 X-1.667S0
G1 X-20S600
G1 X-1.667S0
G1 Y0.1S0
G1 X1.667S0
G1 X20S600
G1 X1.666S0
G1 Y0.1S0
G1 X-1.666S0
G1 X-20S600
G1 X-1.667S0
G1 Y0.1S0
G1 X1.667S0
G1 X20S600
G1 X1.666S0
G1 Y0.1S0
G1 X-1.666S0
G1 X-20S600
G1 X-1.667S0
G1 Y0.1S0
G1 X1.666S0
G1 X20S600
G1 X1.667S0
G1 Y0.1S0
G1 X-1.667S0
G1 X-20S600
G1 X-1.666S0
G1 Y0.1S0
G1 X1.666S0
G1 X20S600
G1 X1.667S0
G1 Y0.1S0
G1 X-1.667S0
G1 X-20S600
G1 X-1.666S0
G1 Y0.1S0
G1 X1.666S0
G1 X20S600
G1 X1.667S0
G1 Y0.1S0
G1 X-1.667S0
G1 X-20S600
G1 X-1.667S0
G1 Y0.1S0
G1 X1.667S0
G1 X20S600
G1 X1.667S0
G1 Y0.1S0
G1 X-1.667S0
G1 X-20S600
G1 X-1.667S0
G1 Y0.1S0
G1 X1.667S0
G1 X20S600
G1 X1.667S0
G1 Y0.1S0
G1 X-1.667S0
G1 X-20S600
G1 X-1.667S0
G1 Y0.1S0
G1 X1.667S0
G1 X20S600
G1 X1.666S0
G1 Y0.1S0
G1 X-1.666S0
G1 X-20S600
G1 X-1.667S0
G1 Y0.1S0
G1 X1.667S0
G1 X20S600
G1 X1.666S0
G1 Y0.1S0
G1 X-1.666S0
G1 X-20S600
G1 X-1.667S0
G1 Y0.1S0
G1 X1.666S0
G1 X20S600
G1 X1.667S0
G1 Y0.1S0
G1 X-1.667S0
G1 X-20S600
G1 X-1.666S0
G1 Y0.1S0
G1 X1.666S0
G1 X20S600
G1 X1.667S0
G1 Y0.1S0
G1 X-1.667S0
G1 X-20S600
G1 X-1.666S0
G1 Y0.1S0
G1 X1.666S0
G1 X20S600
G1 X1.667S0
G1 Y0.1S0
G1 X-1.667S0
G1 X-20S600
G1 X-1.667S0
G1 Y0.1S0
G1 X1.667S0
G1 X20S600
G1 X1.667S0
G1 Y0.1S0
G1 X-1.667S0
G1 X-20S600
G1 X-1.667S0
G1 Y0.1S0
G1 X1.667S0
G1 X20S600
G1 X1.667S0
G1 Y0.1S0
G1 X-1.667S0
G1 X-20S600
G1 X-1.667S0
G1 Y0.1S0
G1 X1.667S0
G1 X20S600
G1 X1.666S0
G1 Y0.1S0
G1 X-1.666S0
G1 X-20S600
G1 X-1.667S0
G1 Y0.1S0
G1 X1.667S0
G1 X20S600
G1 X1.666S0
G1 Y0.1S0
G1 X-1.666S0
G1 X-20S600
G1 X-1.667S0
G1 Y0.1S0
G1 X1.667S0
G1 X20S600
G1 X1.666S0
G1 Y0.1S0
G1 X-1.667S0
G1 X-20S600
G1 X-1.666S0
G1 Y0.1S0
G1 X1.666S0
G1 X20S600
G1 X1.667S0
G1 Y0.1S0
G1 X-1.667S0
G1 X-20S600
G1 X-1.666S0
G1 Y0.1S0
G1 X1.666S0
G1 X20S600
G1 X1.667S0
G1 Y0.1S0
G1 X-1.667S0
G1 X-20S600
G1 X-1.666S0
G1 Y0.1S0
G1 X1.666S0
G1 X20S600
G1 X1.667S0
G1 Y0.1S0
G1 X-1.667S0
G1 X-20S600
G1 X-1.667S0
G1 Y0.1S0
G1 X1.667S0
G1 X20S600
G1 X1.667S0
G1 Y0.1S0
G1 X-1.667S0
G1 X-20S600
G1 X-1.667S0
G1 Y0.1S0
G1 X1.667S0
G1 X20S600
G1 X1.667S0
G1 Y0.1S0
G1 X-1.667S0
G1 X-20S600
G1 X-1.667S0
G1 Y0.1S0
G1 X1.667S0
G1 X20S600
G1 X1.666S0
G1 Y0.1S0
G1 X-1.666S0
G1 X-20S600
G1 X-1.667S0
G1 Y0.1S0
G1 X1.667S0
G1 X20S600
G1 X1.666S0
G1 Y0.1S0
G1 X-1.666S0
G1 X-20.001S600
G1 X-1.666S0
G1 Y0.1S0
G1 X1.666S0
G1 X20S600
G1 X1.667S0
G1 Y0.1S0
G1 X-1.667S0
G1 X-20S600
G1 X-1.666S0
G1 Y0.1S0
G1 X1.666S0
G1 X20S600
G1 X1.667S0
G1 Y0.1S0
G1 X-1.667S0
G1 X-20S600
G1 X-1.666S0
G1 Y0.1S0
G1 X1.666S0
G1 X20S600
G1 X1.667S0
G1 Y0.1S0
G1 X-1.667S0
G1 X-20S600
G1 X-1.667S0
G1 Y0.1S0
G1 X1.667S0
G1 X20S600
G1 X1.667S0
G1 Y0.1S0
G1 X-1.667S0
G1 X-20S600
G1 X-1.667S0
G1 Y0.1S0
G1 X1.667S0
G1 X20S600
G1 X1.667S0
G1 Y0.1S0
G1 X-1.667S0
G1 X-20S600
G1 X-1.667S0
G1 Y0.1S0
G1 X1.667S0
G1 X20S600
G1 X1.666S0
G1 Y0.1S0
G1 X-1.666S0
G1 X-20S600
G1 X-1.667S0
G1 Y0.1S0
G1 X1.667S0
G1 X20S600
G1 X1.666S0
G1 Y0.1S0
G1 X-1.666S0
G1 X-20S600
G1 X-1.667S0
G1 Y0.1S0
G1 X1.666S0
G1 X20S600
G1 X1.667S0
G1 Y0.1S0
G1 X-1.667S0
G1 X-20S600
G1 X-1.666S0
G1 Y0.1S0
G1 X1.666S0
G1 X20S600
G1 X1.667S0
G1 Y0.1S0
G1 X-1.667S0
G1 X-20S600
G1 X-1.666S0
G1 Y0.1S0
G1 X1.666S0
G1 X20S600
G1 X1.667S0
G1 Y0.1S0
G1 X-1.667S0
G1 X-20S600
G1 X-1.667S0
G1 Y0.1S0
G1 X1.667S0
G1 X20S600
G1 X1.667S0
G1 Y0.1S0
G1 X-1.667S0
G1 X-20S600
G1 X-1.667S0
G1 Y0.1S0
G1 X1.667S0
G1 X20S600
G1 X1.667S0
G1 Y0.1S0
G1 X-1.667S0
G1 X-20S600
G1 X-1.667S0
G1 Y0.1S0
G1 X1.667S0
G1 X20S600
G1 X1.666S0
G1 Y0.1S0
G1 X-1.666S0
G1 X-20S600
G1 X-1.667S0
G1 Y0.1S0
G1 X1.667S0
G1 X20S600
G1 X1.666S0
G1 Y0.1S0
G1 X-1.666S0
G1 X-20S600
G1 X-1.667S0
G1 Y0.1S0
G1 X1.666S0
G1 X20.001S600
G1 X1.666S0
G1 Y0.1S0
G1 X-1.667S0
G1 X-20S600
G1 X-1.666S0
G1 Y0.1S0
G1 X1.666S0
G1 X20S600
G1 X1.667S0
G1 Y0.1S0
G1 X-1.667S0
G1 X-20S600
G1 X-1.666S0
G1 Y0.1S0
G1 X1.666S0
G1 X20S600
G1 X1.667S0
G1 Y0.1S0
G1 X-1.667S0
G1 X-20S600
G1 X-1.667S0
G1 Y0.1S0
G1 X1.667S0
G1 X20S600
G1 X1.667S0
G1 Y0.1S0
G1 X-1.667S0
G1 X-20S600
G1 X-1.667S0
G1 Y0.1S0
G1 X1.667S0
G1 X20S600
G1 X1.667S0
G1 Y0.1S0
G1 X-1.667S0
G1 X-20S600
G1 X-1.667S0
G1 Y0.1S0
G1 X1.667S0
G1 X20S600
G1 X1.666S0
G1 Y0.1S0
G1 X-1.666S0
G1 X-20S600
G1 X-1.667S0
G1 Y0.1S0
G1 X1.667S0
G1 X20S600
G1 X1.666S0
G1 Y0.1S0
G1 X-1.666S0
G1 X-20S600
G1 X-1.667S0
G1 Y0.1S0
G1 X1.667S0
G1 X20S600
G1 X1.666S0
G1 Y0.1S0
G1 X-1.667S0
G1 X-20S600
G1 X-1.666S0
G1 Y0.1S0
G1 X1.666S0
G1 X20S600
G1 X1.667S0
G1 Y0.1S0
G1 X-1.667S0
G1 X-20S600
G1 X-1.666S0
G1 Y0.1S0
G1 X1.666S0
G1 X20S600
G1 X1.667S0
G1 Y0.1S0
G1 X-1.667S0
G1 X-20S600
G1 X-1.666S0
G1 Y0.1S0
G1 X1.666S0
G1 X20S600
G1 X1.667S0
G1 Y0.1S0
G1 X-1.667S0
G1 X-20S600
G1 X-1.667S0
G1 Y0.1S0
G1 X1.667S0
G1 X20S600
G1 X1.667S0
G1 Y0.1S0
G1 X-1.667S0
G1 X-20S600
G1 X-1.667S0
G1 Y0.1S0
G1 X1.667S0
G1 X20S600
G1 X1.667S0
G1 Y0.1S0
G1 X-1.667S0
G1 X-20S600
G1 X-1.667S0
G1 Y0.1S0
G1 X1.667S0
G1 X20S600
G1 X1.666S0
G1 Y0.1S0
G1 X-1.666S0
G1 X-20S600
G1 X-1.667S0
G1 Y0.1S0
G1 X1.667S0
G1 X20S600
G1 X1.666S0
G1 Y0.1S0
G1 X-1.666S0
G1 X-20S600
G1 X-1.667S0
G1 Y0.1S0
G1 X1.666S0
G1 X20S600
G1 X1.667S0
G1 Y0.1S0
G1 X-1.667S0
G1 X-20S600
G1 X-1.666S0
G1 Y0.1S0
G1 X1.666S0
G1 X20S600
G1 X1.667S0
G1 Y0.1S0
G1 X-1.667S0
G1 X-20S600
G1 X-1.666S0
G1 Y0.1S0
G1 X1.666S0
G1 X20S600
G1 X1.667S0
G1 Y0.1S0
G1 X-1.667S0
G1 X-20S600
G1 X-1.667S0
G1 Y0.1S0
G1 X1.667S0
G1 X20S600
G1 X1.667S0
G1 Y0.1S0
G1 X-1.667S0
G1 X-20S600
G1 X-1.667S0
G1 Y0.1S0
G1 X1.667S0
G1 X20S600
G1 X1.667S0
G1 Y0.1S0
G1 X-1.667S0
G1 X-20S600
G1 X-1.667S0
G1 Y0.1S0
G1 X1.667S0
G1 X20S600
G1 X1.666S0
G1 Y0.1S0
G1 X-1.666S0
G1 X-20S600
G1 X-1.667S0
G1 Y0.1S0
G1 X1.667S0
G1 X20S600
G1 X1.666S0
G1 Y0.1S0
G1 X-1.666S0
G1 X-20S600
G1 X-1.667S0
G1 Y0.1S0
G1 X1.666S0
G1 X20S600
G1 X1.667S0
G1 Y0.1S0
G1 X-1.667S0
G1 X-20S600
G1 X-1.666S0
G1 Y0.1S0
G1 X1.666S0
G1 X20S600
G1 X1.667S0
G1 Y0.1S0
G1 X-1.667S0
G1 X-20S600
G1 X-1.666S0
G1 Y0.1S0
G1 X1.666S0
G1 X20S600
G1 X1.667S0
G1 Y0.1S0
G1 X-1.667S0
G1 X-20S600
G1 X-1.667S0
G90
; Layer C05 Pass 2 of 5
G91
G1 X0.014Y-19.9S0
G1 X1.667S0
G1 X20S600
G1 X1.666S0
G1 Y0.1S0
G1 X-1.666S0
G1 X-20S600
G1 X-1.667S0
G1 Y0.1S0
G1 X1.667S0
G1 X20S600
G1 X1.666S0
G1 Y0.1S0
G1 X-1.666S0
G1 X-20S600
G1 X-1.667S0
G1 Y0.1S0
G1 X1.667S0
G1 X20S600
G1 X1.666S0
G1 Y0.1S0
G1 X-1.667S0
G1 X-20S600
G1 X-1.666S0
G1 Y0.1S0
G1 X1.666S0
G1 X20S600
G1 X1.667S0
G1 Y0.1S0
G1 X-1.667S0
G1 X-20S600
G1 X-1.666S0
G1 Y0.1S0
G1 X1.666S0
G1 X20S600
G1 X1.667S0
G1 Y0.1S0
G1 X-1.667S0
G1 X-20S600
G1 X-1.666S0
G1 Y0.1S0
G1 X1.666S0
G1 X20S600
G1 X1.667S0
G1 Y0.1S0
G1 X-1.667S0
G1 X-20S600
G1 X-1.667S0
G1 Y0.1S0
G1 X1.667S0
G1 X20S600
G1 X1.667S0
G1 Y0.1S0
G1 X-1.667S0
G1 X-20S600
G1 X-1.667S0
G1 Y0.1S0
G1 X1.667S0
G1 X20S600
G1 X1.667S0
G1 Y0.1S0
G1 X-1.667S0
G1 X-20S600
G1 X-1.667S0
G1 Y0.1S0
G1 X1.667S0
G1 X20S600
G1 X1.666S0
G1 Y0.1S0
G1 X-1.666S0
G1 X-20S600
G1 X-1.667S0
G1 Y0.1S0
G1 X1.667S0
G1 X20S600
G1 X1.666S0
G1 Y0.1S0
G1 X-1.666S0
G1 X-20S600
G1 X-1.667S0
G1 Y0.1S0
G1 X1.666S0
G1 X20S600
G1 X1.667S0
G1 Y0.1S0
G1 X-1.667S0
G1 X-20S600
G1 X-1.666S0
G1 Y0.1S0
G1 X1.666S0
G1 X20S600
G1 X1.667S0
G1 Y0.1S0
G1 X-1.667S0
G1 X-20S600
G1 X-1.666S0
G1 Y0.1S0
G1 X1.666S0
G1 X20S600
G1 X1.667S0
G1 Y0.1S0
G1 X-1.667S0
G1 X-20S600
G1 X-1.667S0
G1 Y0.1S0
G1 X1.667S0
G1 X20S600
G1 X1.667S0
G1 Y0.1S0
G1 X-1.667S0
G1 X-20S600
G1 X-1.667S0
G1 Y0.1S0
G1 X1.667S0
G1 X20S600
G1 X1.667S0
G1 Y0.1S0
G1 X-1.667S0
G1 X-20S600
G1 X-1.667S0
G1 Y0.1S0
G1 X1.667S0
G1 X20S600
G1 X1.666S0
G1 Y0.1S0
G1 X-1.666S0
G1 X-20S600
G1 X-1.667S0
G1 Y0.1S0
G1 X1.667S0
G1 X20S600
G1 X1.666S0
G1 Y0.1S0
G1 X-1.666S0
G1 X-20S600
G1 X-1.667S0
G1 Y0.1S0
G1 X1.666S0
G1 X20S600
G1 X1.667S0
G1 Y0.1S0
G1 X-1.667S0
G1 X-20S600
G1 X-1.666S0
G1 Y0.1S0
G1 X1.666S0
G1 X20S600
G1 X1.667S0
G1 Y0.1S0
G1 X-1.667S0
G1 X-20S600
G1 X-1.666S0
G1 Y0.1S0
G1 X1.666S0
G1 X20S600
G1 X1.667S0
G1 Y0.1S0
G1 X-1.667S0
G1 X-20S600
G1 X-1.667S0
G1 Y0.1S0
G1 X1.667S0
G1 X20S600
G1 X1.667S0
G1 Y0.1S0
G1 X-1.667S0
G1 X-20S600
G1 X-1.667S0
G1 Y0.1S0
G1 X1.667S0
G1 X20S600
G1 X1.667S0
G1 Y0.1S0
G1 X-1.667S0
G1 X-20S600
G1 X-1.667S0
G1 Y0.1S0
G1 X1.667S0
G1 X20S600
G1 X1.666S0
G1 Y0.1S0
G1 X-1.666S0
G1 X-20S600
G1 X-1.667S0
G1 Y0.1S0
G1 X1.667S0
G1 X20S600
G1 X1.666S0
G1 Y0.1S0
G1 X-1.666S0
G1 X-20S600
G1 X-1.667S0
G1 Y0.1S0
G1 X1.667S0
G1 X20S600
G1 X1.666S0
G1 Y0.1S0
G1 X-1.667S0
G1 X-20S600
G1 X-1.666S0
G1 Y0.1S0
G1 X1.666S0
G1 X20S600
G1 X1.667S0
G1 Y0.1S0
G1 X-1.667S0
G1 X-20S600
G1 X-1.666S0
G1 Y0.1S0
G1 X1.666S0
G1 X20S600
G1 X1.667S0
G1 Y0.1S0
G1 X-1.667S0
G1 X-20S600
G1 X-1.667S0
G1 Y0.1S0
G1 X1.667S0
G1 X20S600
G1 X1.667S0
G1 Y0.1S0
G1 X-1.667S0
G1 X-20S600
G1 X-1.667S0
G1 Y0.1S0
G1 X1.667S0
G1 X20S600
G1 X1.667S0
G1 Y0.1S0
G1 X-1.667S0
G1 X-20S600
G1 X-1.667S0
G1 Y0.1S0
G1 X1.667S0
G1 X20S600
G1 X1.666S0
G1 Y0.1S0
G1 X-1.666S0
G1 X-20S600
G1 X-1.667S0
G1 Y0.1S0
G1 X1.667S0
G1 X20S600
G1 X1.666S0
G1 Y0.1S0
G1 X-1.666S0
G1 X-20S600
G1 X-1.667S0
G1 Y0.1S0
G1 X1.667S0
G1 X20S600
G1 X1.666S0
G1 Y0.1S0
G1 X-1.667S0
G1 X-20S600
G1 X-1.666S0
G1 Y0.1S0
G1 X1.666S0
G1 X20S600
G1 X1.667S0
G1 Y0.1S0
G1 X-1.667S0
G1 X-20S600
G1 X-1.666S0
G1 Y0.1S0
G1 X1.666S0
G1 X20S600
G1 X1.667S0
G1 Y0.1S0
G1 X-1.667S0
G1 X-20S600
G1 X-1.666S0
G1 Y0.1S0
G1 X1.666S0
G1 X20S600
G1 X1.667S0
G1 Y0.1S0
G1 X-1.667S0
G1 X-20S600
G1 X-1.667S0
G1 Y0.1S0
G1 X1.667S0
G1 X20S600
G1 X1.667S0
G1 Y0.1S0
G1 X-1.667S0
G1 X-20S600
G1 X-1.667S0
G1 Y0.1S0
G1 X1.667S0
G1 X20S600
G1 X1.667S0
G1 Y0.1S0
G1 X-1.667S0
G1 X-20S600
G1 X-1.667S0
G1 Y0.1S0
G1 X1.667S0
G1 X20S600
G1 X1.666S0
G1 Y0.1S0
G1 X-1.666S0
G1 X-20S600
G1 X-1.667S0
G1 Y0.1S0
G1 X1.667S0
G1 X20S600
G1 X1.666S0
G1 Y0.1S0
G1 X-1.666S0
G1 X-20S600
G1 X-1.667S0
G1 Y0.1S0
G1 X1.666S0
G1 X20S600
G1 X1.667S0
G1 Y0.1S0
G1 X-1.667S0
G1 X-20S600
G1 X-1.666S0
G1 Y0.1S0
G1 X1.666S0
G1 X20S600
G1 X1.667S0
G1 Y0.1S0
G1 X-1.667S0
G1 X-20S600
G1 X-1.666S0
G1 Y0.1S0
G1 X1.666S0
G1 X20S600
G1 X1.667S0
G1 Y0.1S0
G1 X-1.667S0
G1 X-20S600
G1 X-1.667S0
G1 Y0.1S0
G1 X1.667S0
G1 X20S600
G1 X1.667S0
G1 Y0.1S0
G1 X-1.667S0
G1 X-20S600
G1 X-1.667S0
G1 Y0.1S0
G1 X1.667S0
G1 X20S600
G1 X1.667S0
G1 Y0.1S0
G1 X-1.667S0
G1 X-20S600
G1 X-1.667S0
G1 Y0.1S0
G1 X1.667S0
G1 X20S600
G1 X1.666S0
G1 Y0.1S0
G1 X-1.666S0
G1 X-20S600
G1 X-1.667S0
G1 Y0.1S0
G1 X1.667S0
G1 X20S600
G1 X1.666S0
G1 Y0.1S0
G1 X-1.666S0
G1 X-20S600
G1 X-1.667S0
G1 Y0.1S0
G1 X1.666S0
G1 X20S600
G1 X1.667S0
G1 Y0.1S0
G1 X-1.667S0
G1 X-20S600
G1 X-1.666S0
G1 Y0.1S0
G1 X1.666S0
G1 X20S600
G1 X1.667S0
G1 Y0.1S0
G1 X-1.667S0
G1 X-20S600
G1 X-1.666S0
G1 Y0.1S0
G1 X1.666S0
G1 X20S600
G1 X1.667S0
G1 Y0.1S0
G1 X-1.667S0
G1 X-20S600
G1 X-1.667S0
G1 Y0.1S0
G1 X1.667S0
G1 X20S600
G1 X1.667S0
G1 Y0.1S0
G1 X-1.667S0
G1 X-20S600
G1 X-1.667S0
G1 Y0.1S0
G1 X1.667S0
G1 X20S600
G1 X1.667S0
G1 Y0.1S0
G1 X-1.667S0
G1 X-20S600
G1 X-1.667S0
G1 Y0.1S0
G1 X1.667S0
G1 X20S600
G1 X1.666S0
G1 Y0.1S0
G1 X-1.666S0
G1 X-20S600
G1 X-1.667S0
G1 Y0.1S0
G1 X1.667S0
G1 X20S600
G1 X1.666S0
G1 Y0.1S0
G1 X-1.666S0
G1 X-20S600
G1 X-1.667S0
G1 Y0.1S0
G1 X1.667S0
G1 X20S600
G1 X1.666S0
G1 Y0.1S0
G1 X-1.667S0
G1 X-20S600
G1 X-1.666S0
G1 Y0.1S0
G1 X1.666S0
G1 X20S600
G1 X1.667S0
G1 Y0.1S0
G1 X-1.667S0
G1 X-20S600
G1 X-1.666S0
G1 Y0.1S0
G1 X1.666S0
G1 X20S600
G1 X1.667S0
G1 Y0.1S0
G1 X-1.667S0
G1 X-20S600
G1 X-1.666S0
G1 Y0.1S0
G1 X1.666S0
G1 X20S600
G1 X1.667S0
G1 Y0.1S0
G1 X-1.667S0
G1 X-20S600
G1 X-1.667S0
G1 Y0.1S0
G1 X1.667S0
G1 X20S600
G1 X1.667S0
G1 Y0.1S0
G1 X-1.667S0
G1 X-20S600
G1 X-1.667S0
G1 Y0.1S0
G1 X1.667S0
G1 X20S600
G1 X1.667S0
G1 Y0.1S0
G1 X-1.667S0
G1 X-20S600
G1 X-1.667S0
G1 Y0.1S0
G1 X1.667S0
G1 X20S600
G1 X1.666S0
G1 Y0.1S0
G1 X-1.666S0
G1 X-20S600
G1 X-1.667S0
G1 Y0.1S0
G1 X1.667S0
G1 X20S600
G1 X1.666S0
G1 Y0.1S0
G1 X-1.666S0
G1 X-20.001S600
G1 X-1.666S0
G1 Y0.1S0
G1 X1.666S0
G1 X20S600
G1 X1.667S0
G1 Y0.1S0
G1 X-1.667S0
G1 X-20S600
G1 X-1.666S0
G1 Y0.1S0
G1 X1.666S0
G1 X20S600
G1 X1.667S0
G1 Y0.1S0
G1 X-1.667S0
G1 X-20S600
G1 X-1.666S0
G1 Y0.1S0
G1 X1.666S0
G1 X20S600
G1 X1.667S0
G1 Y0.1S0
G1 X-1.667S0
G1 X-20S600
G1 X-1.667S0
G1 Y0.1S0
G1 X1.667S0
G1 X20S600
G1 X1.667S0
G1 Y0.1S0
G1 X-1.667S0
G1 X-20S600
G1 X-1.667S0
G1 Y0.1S0
G1 X1.667S0
G1 X20S600
G1 X1.667S0
G1 Y0.1S0
G1 X-1.667S0
G1 X-20S600
G1 X-1.667S0
G1 Y0.1S0
G1 X1.667S0
G1 X20S600
G1 X1.666S0
G1 Y0.1S0
G1 X-1.666S0
G1 X-20S600
G1 X-1.667S0
G1 Y0.1S0
G1 X1.667S0
G1 X20S600
G1 X1.666S0
G1 Y0.1S0
G1 X-1.666S0
G1 X-20S600
G1 X-1.667S0
G1 Y0.1S0
G1 X1.666S0
G1 X20S600
G1 X1.667S0
G1 Y0.1S0
G1 X-1.667S0
G1 X-20S600
G1 X-1.666S0
G1 Y0.1S0
G1 X1.666S0
G1 X20S600
G1 X1.667S0
G1 Y0.1S0
G1 X-1.667S0
G1 X-20S600
G1 X-1.666S0
G1 Y0.1S0
G1 X1.666S0
G1 X20S600
G1 X1.667S0
G1 Y0.1S0
G1 X-1.667S0
G1 X-20S600
G1 X-1.667S0
G1 Y0.1S0
G1 X1.667S0
G1 X20S600
G1 X1.667S0
G1 Y0.1S0
G1 X-1.667S0
G1 X-20S600
G1 X-1.667S0
G1 Y0.1S0
G1 X1.667S0
G1 X20S600
G1 X1.667S0
G1 Y0.1S0
G1 X-1.667S0
G1 X-20S600
G1 X-1.667S0
G1 Y0.1S0
G1 X1.667S0
G1 X20S600
G1 X1.666S0
G1 Y0.1S0
G1 X-1.666S0
G1 X-20S600
G1 X-1.667S0
G1 Y0.1S0
G1 X1.667S0
G1 X20S600
G1 X1.666S0
G1 Y0.1S0
G1 X-1.666S0
G1 X-20S600
G1 X-1.667S0
G1 Y0.1S0
G1 X1.666S0
G1 X20.001S600
G1 X1.666S0
G1 Y0.1S0
G1 X-1.667S0
G1 X-20S600
G1 X-1.666S0
G1 Y0.1S0
G1 X1.666S0
G1 X20S600
G1 X1.667S0
G1 Y0.1S0
G1 X-1.667S0
G1 X-20S600
G1 X-1.666S0
G1 Y0.1S0
G1 X1.666S0
G1 X20S600
G1 X1.667S0
G1 Y0.1S0
G1 X-1.667S0
G1 X-20S600
G1 X-1.667S0
G1 Y0.1S0
G1 X1.667S0
G1 X20S600
G1 X1.667S0
G1 Y0.1S0
G1 X-1.667S0
G1 X-20S600
G1 X-1.667S0
G1 Y0.1S0
G1 X1.667S0
G1 X20S600
G1 X1.667S0
G1 Y0.1S0
G1 X-1.667S0
G1 X-20S600
G1 X-1.667S0
G1 Y0.1S0
G1 X1.667S0
G1 X20S600
G1 X1.666S0
G1 Y0.1S0
G1 X-1.666S0
G1 X-20S600
G1 X-1.667S0
G1 Y0.1S0
G1 X1.667S0
G1 X20S600
G1 X1.666S0
G1 Y0.1S0
G1 X-1.666S0
G1 X-20S600
G1 X-1.667S0
G1 Y0.1S0
G1 X1.667S0
G1 X20S600
G1 X1.666S0
G1 Y0.1S0
G1 X-1.667S0
G1 X-20S600
G1 X-1.666S0
G1 Y0.1S0
G1 X1.666S0
G1 X20S600
G1 X1.667S0
G1 Y0.1S0
G1 X-1.667S0
G1 X-20S600
G1 X-1.666S0
G1 Y0.1S0
G1 X1.666S0
G1 X20S600
G1 X1.667S0
G1 Y0.1S0
G1 X-1.667S0
G1 X-20S600
G1 X-1.666S0
G1 Y0.1S0
G1 X1.666S0
G1 X20S600
G1 X1.667S0
G1 Y0.1S0
G1 X-1.667S0
G1 X-20S600
G1 X-1.667S0
G1 Y0.1S0
G1 X1.667S0
G1 X20S600
G1 X1.667S0
G1 Y0.1S0
G1 X-1.667S0
G1 X-20S600
G1 X-1.667S0
G1 Y0.1S0
G1 X1.667S0
G1 X20S600
G1 X1.667S0
G1 Y0.1S0
G1 X-1.667S0
G1 X-20S600
G1 X-1.667S0
G1 Y0.1S0
G1 X1.667S0
G1 X20S600
G1 X1.666S0
G1 Y0.1S0
G1 X-1.666S0
G1 X-20S600
G1 X-1.667S0
G1 Y0.1S0
G1 X1.667S0
G1 X20S600
G1 X1.666S0
G1 Y0.1S0
G1 X-1.666S0
G1 X-20S600
G1 X-1.667S0
G1 Y0.1S0
G1 X1.666S0
G1 X20S600
G1 X1.667S0
G1 Y0.1S0
G1 X-1.667S0
G1 X-20S600
G1 X-1.666S0
G1 Y0.1S0
G1 X1.666S0
G1 X20S600
G1 X1.667S0
G1 Y0.1S0
G1 X-1.667S0
G1 X-20S600
G1 X-1.666S0
G1 Y0.1S0
G1 X1.666S0
G1 X20S600
G1 X1.667S0
G1 Y0.1S0
G1 X-1.667S0
G1 X-20S600
G1 X-1.667S0
G1 Y0.1S0
G1 X1.667S0
G1 X20S600
G1 X1.667S0
G1 Y0.1S0
G1 X-1.667S0
G1 X-20S600
G1 X-1.667S0
G1 Y0.1S0
G1 X1.667S0
G1 X20S600
G1 X1.667S0
G1 Y0.1S0
G1 X-1.667S0
G1 X-20S600
G1 X-1.667S0
G1 Y0.1S0
G1 X1.667S0
G1 X20S600
G1 X1.666S0
G1 Y0.1S0
G1 X-1.666S0
G1 X-20S600
G1 X-1.667S0
G1 Y0.1S0
G1 X1.667S0
G1 X20S600
G1 X1.666S0
G1 Y0.1S0
G1 X-1.666S0
G1 X-20S600
G1 X-1.667S0
G1 Y0.1S0
G1 X1.666S0
G1 X20S600
G1 X1.667S0
G1 Y0.1S0
G1 X-1.667S0
G1 X-20S600
G1 X-1.666S0
G1 Y0.1S0
G1 X1.666S0
G1 X20S600
G1 X1.667S0
G1 Y0.1S0
G1 X-1.667S0
G1 X-20S600
G1 X-1.666S0
G1 Y0.1S0
G1 X1.666S0
G1 X20S600
G1 X1.667S0
G1 Y0.1S0
G1 X-1.667S0
G1 X-20S600
G1 X-1.667S0
G90
; Layer C05 Pass 3 of 5
G91
G1 X0.014Y-19.9S0
G1 X1.667S0
G1 X20S600
G1 X1.666S0
G1 Y0.1S0
G1 X-1.666S0
G1 X-20S600
G1 X-1.667S0
G1 Y0.1S0
G1 X1.667S0
G1 X20S600
G1 X1.666S0
G1 Y0.1S0
G1 X-1.666S0
G1 X-20S600
G1 X-1.667S0
G1 Y0.1S0
G1 X1.667S0
G1 X20S600
G1 X1.666S0
G1 Y0.1S0
G1 X-1.667S0
G1 X-20S600
G1 X-1.666S0
G1 Y0.1S0
G1 X1.666S0
G1 X20S600
G1 X1.667S0
G1 Y0.1S0
G1 X-1.667S0
G1 X-20S600
G1 X-1.666S0
G1 Y0.1S0
G1 X1.666S0
G1 X20S600
G1 X1.667S0
G1 Y0.1S0
G1 X-1.667S0
G1 X-20S600
G1 X-1.666S0
G1 Y0.1S0
G1 X1.666S0
G1 X20S600
G1 X1.667S0
G1 Y0.1S0
G1 X-1.667S0
G1 X-20S600
G1 X-1.667S0
G1 Y0.1S0
G1 X1.667S0
G1 X20S600
G1 X1.667S0
G1 Y0.1S0
G1 X-1.667S0
G1 X-20S600
G1 X-1.667S0
G1 Y0.1S0
G1 X1.667S0
G1 X20S600
G1 X1.667S0
G1 Y0.1S0
G1 X-1.667S0
G1 X-20S600
G1 X-1.667S0
G1 Y0.1S0
G1 X1.667S0
G1 X20S600
G1 X1.666S0
G1 Y0.1S0
G1 X-1.666S0
G1 X-20S600
G1 X-1.667S0
G1 Y0.1S0
G1 X1.667S0
G1 X20S600
G1 X1.666S0
G1 Y0.1S0
G1 X-1.666S0
G1 X-20S600
G1 X-1.667S0
G1 Y0.1S0
G1 X1.666S0
G1 X20S600
G1 X1.667S0
G1 Y0.1S0
G1 X-1.667S0
G1 X-20S600
G1 X-1.666S0
G1 Y0.1S0
G1 X1.666S0
G1 X20S600
G1 X1.667S0
G1 Y0.1S0
G1 X-1.667S0
G1 X-20S600
G1 X-1.666S0
G1 Y0.1S0
G1 X1.666S0
G1 X20S600
G1 X1.667S0
G1 Y0.1S0
G1 X-1.667S0
G1 X-20S600
G1 X-1.667S0
G1 Y0.1S0
G1 X1.667S0
G1 X20S600
G1 X1.667S0
G1 Y0.1S0
G1 X-1.667S0
G1 X-20S600
G1 X-1.667S0
G1 Y0.1S0
G1 X1.667S0
G1 X20S600
G1 X1.667S0
G1 Y0.1S0
G1 X-1.667S0
G1 X-20S600
G1 X-1.667S0
G1 Y0.1S0
G1 X1.667S0
G1 X20S600
G1 X1.666S0
G1 Y0.1S0
G1 X-1.666S0
G1 X-20S600
G1 X-1.667S0
G1 Y0.1S0
G1 X1.667S0
G1 X20S600
G1 X1.666S0
G1 Y0.1S0
G1 X-1.666S0
G1 X-20S600
G1 X-1.667S0
G1 Y0.1S0
G1 X1.666S0
G1 X20S600
G1 X1.667S0
G1 Y0.1S0
G1 X-1.667S0
G1 X-20S600
G1 X-1.666S0
G1 Y0.1S0
G1 X1.666S0
G1 X20S600
G1 X1.667S0
G1 Y0.1S0
G1 X-1.667S0
G1 X-20S600
G1 X-1.666S0
G1 Y0.1S0
G1 X1.666S0
G1 X20S600
G1 X1.667S0
G1 Y0.1S0
G1 X-1.667S0
G1 X-20S600
G1 X-1.667S0
G1 Y0.1S0
G1 X1.667S0
G1 X20S600
G1 X1.667S0
G1 Y0.1S0
G1 X-1.667S0
G1 X-20S600
G1 X-1.667S0
G1 Y0.1S0
G1 X1.667S0
G1 X20S600
G1 X1.667S0
G1 Y0.1S0
G1 X-1.667S0
G1 X-20S600
G1 X-1.667S0
G1 Y0.1S0
G1 X1.667S0
G1 X20S600
G1 X1.666S0
G1 Y0.1S0
G1 X-1.666S0
G1 X-20S600
G1 X-1.667S0
G1 Y0.1S0
G1 X1.667S0
G1 X20S600
G1 X1.666S0
G1 Y0.1S0
G1 X-1.666S0
G1 X-20S600
G1 X-1.667S0
G1 Y0.1S0
G1 X1.667S0
G1 X20S600
G1 X1.666S0
G1 Y0.1S0
G1 X-1.667S0
G1 X-20S600
G1 X-1.666S0
G1 Y0.1S0
G1 X1.666S0
G1 X20S600
G1 X1.667S0
G1 Y0.1S0
G1 X-1.667S0
G1 X-20S600
G1 X-1.666S0
G1 Y0.1S0
G1 X1.666S0
G1 X20S600
G1 X1.667S0
G1 Y0.1S0
G1 X-1.667S0
G1 X-20S600
G1 X-1.667S0
G1 Y0.1S0
G1 X1.667S0
G1 X20S600
G1 X1.667S0
G1 Y0.1S0
G1 X-1.667S0
G1 X-20S600
G1 X-1.667S0
G1 Y0.1S0
G1 X1.667S0
G1 X20S600
G1 X1.667S0
G1 Y0.1S0
G1 X-1.667S0
G1 X-20S600
G1 X-1.667S0
G1 Y0.1S0
G1 X1.667S0
G1 X20S600
G1 X1.666S0
G1 Y0.1S0
G1 X-1.666S0
G1 X-20S600
G1 X-1.667S0
G1 Y0.1S0
G1 X1.667S0
G1 X20S600
G1 X1.666S0
G1 Y0.1S0
G1 X-1.666S0
G1 X-20S600
G1 X-1.667S0
G1 Y0.1S0
G1 X1.667S0
G1 X20S600
G1 X1.666S0
G1 Y0.1S0
G1 X-1.667S0
G1 X-20S600
G1 X-1.666S0
G1 Y0.1S0
G1 X1.666S0
G1 X20S600
G1 X1.667S0
G1 Y0.1S0
G1 X-1.667S0
G1 X-20S600
G1 X-1.666S0
G1 Y0.1S0
G1 X1.666S0
G1 X20S600
G1 X1.667S0
G1 Y0.1S0
G1 X-1.667S0
G1 X-20S600
G1 X-1.666S0
G1 Y0.1S0
G1 X1.666S0
G1 X20S600
G1 X1.667S0
G1 Y0.1S0
G1 X-1.667S0
G1 X-20S600
G1 X-1.667S0
G1 Y0.1S0
G1 X1.667S0
G1 X20S600
G1 X1.667S0
G1 Y0.1S0
G1 X-1.667S0
G1 X-20S600
G1 X-1.667S0
G1 Y0.1S0
G1 X1.667S0
G1 X20S600
G1 X1.667S0
G1 Y0.1S0
G1 X-1.667S0
G1 X-20S600
G1 X-1.667S0
G1 Y0.1S0
G1 X1.667S0
G1 X20S600
G1 X1.666S0
G1 Y0.1S0
G1 X-1.666S0
G1 X-20S600
G1 X-1.667S0
G1 Y0.1S0
G1 X1.667S0
G1 X20S600
G1 X1.666S0
G1 Y0.1S0
G1 X-1.666S0
G1 X-20S600
G1 X-1.667S0
G1 Y0.1S0
G1 X1.666S0
G1 X20S600
G1 X1.667S0
G1 Y0.1S0
G1 X-1.667S0
G1 X-20S600
G1 X-1.666S0
G1 Y0.1S0
G1 X1.666S0
G1 X20S600
G1 X1.667S0
G1 Y0.1S0
G1 X-1.667S0
G1 X-20S600
G1 X-1.666S0
G1 Y0.1S0
G1 X1.666S0
G1 X20S600
G1 X1.667S0
G1 Y0.1S0
G1 X-1.667S0
G1 X-20S600
G1 X-1.667S0
G1 Y0.1S0
G1 X1.667S0
G1 X20S600
G1 X1.667S0
G1 Y0.1S0
G1 X-1.667S0
G1 X-20S600
G1 X-1.667S0
G1 Y0.1S0
G1 X1.667S0
G1 X20S600
G1 X1.667S0
G1 Y0.1S0
G1 X-1.667S0
G1 X-20S600
G1 X-1.667S0
G1 Y0.1S0
G1 X1.667S0
G1 X20S600
G1 X1.666S0
G1 Y0.1S0
G1 X-1.666S0
G1 X-20S600
G1 X-1.667S0
G1 Y0.1S0
G1 X1.667S0
G1 X20S600
G1 X1.666S0
G1 Y0.1S0
G1 X-1.666S0
G1 X-20S600
G1 X-1.667S0
G1 Y0.1S0
G1 X1.666S0
G1 X20S600
G1 X1.667S0
G1 Y0.1S0
G1 X-1.667S0
G1 X-20S600
G1 X-1.666S0
G1 Y0.1S0
G1 X1.666S0
G1 X20S600
G1 X1.667S0
G1 Y0.1S0
G1 X-1.667S0
G1 X-20S600
G1 X-1.666S0
G1 Y0.1S0
G1 X1.666S0
G1 X20S600
G1 X1.667S0
G1 Y0.1S0
G1 X-1.667S0
G1 X-20S600
G1 X-1.667S0
G1 Y0.1S0
G1 X1.667S0
G1 X20S600
G1 X1.667S0
G1 Y0.1S0
G1 X-1.667S0
G1 X-20S600
G1 X-1.667S0
G1 Y0.1S0
G1 X1.667S0
G1 X20S600
G1 X1.667S0
G1 Y0.1S0
G1 X-1.667S0
G1 X-20S600
G1 X-1.667S0
G1 Y0.1S0
G1 X1.667S0
G1 X20S600
G1 X1.666S0
G1 Y0.1S0
G1 X-1.666S0
G1 X-20S600
G1 X-1.667S0
G1 Y0.1S0
G1 X1.667S0
G1 X20S600
G1 X1.666S0
G1 Y0.1S0
G1 X-1.666S0
G1 X-20S600
G1 X-1.667S0
G1 Y0.1S0
G1 X1.667S0
G1 X20S600
G1 X1.666S0
G1 Y0.1S0
G1 X-1.667S0
G1 X-20S600
G1 X-1.666S0
G1 Y0.1S0
G1 X1.666S0
G1 X20S600
G1 X1.667S0
G1 Y0.1S0
G1 X-1.667S0
G1 X-20S600
G1 X-1.666S0
G1 Y0.1S0
G1 X1.666S0
G1 X20S600
G1 X1.667S0
G1 Y0.1S0
G1 X-1.667S0
G1 X-20S600
G1 X-1.666S0
G1 Y0.1S0
G1 X1.666S0
G1 X20S600
G1 X1.667S0
G1 Y0.1S0
G1 X-1.667S0
G1 X-20S600
G1 X-1.667S0
G1 Y0.1S0
G1 X1.667S0
G1 X20S600
G1 X1.667S0
G1 Y0.1S0
G1 X-1.667S0
G1 X-20S600
G1 X-1.667S0
G1 Y0.1S0
G1 X1.667S0
G1 X20S600
G1 X1.667S0
G1 Y0.1S0
G1 X-1.667S0
G1 X-20S600
G1 X-1.667S0
G1 Y0.1S0
G1 X1.667S0
G1 X20S600
G1 X1.666S0
G1 Y0.1S0
G1 X-1.666S0
G1 X-20S600
G1 X-1.667S0
G1 Y0.1S0
G1 X1.667S0
G1 X20S600
G1 X1.666S0
G1 Y0.1S0
G1 X-1.666S0
G1 X-20.001S600
G1 X-1.666S0
G1 Y0.1S0
G1 X1.666S0
G1 X20S600
G1 X1.667S0
G1 Y0.1S0
G1 X-1.667S0
G1 X-20S600
G1 X-1.666S0
G1 Y0.1S0
G1 X1.666S0
G1 X20S600
G1 X1.667S0
G1 Y0.1S0
G1 X-1.667S0
G1 X-20S600
G1 X-1.666S0
G1 Y0.1S0
G1 X1.666S0
G1 X20S600
G1 X1.667S0
G1 Y0.1S0
G1 X-1.667S0
G1 X-20S600
G1 X-1.667S0
G1 Y0.1S0
G1 X1.667S0
G1 X20S600
G1 X1.667S0
G1 Y0.1S0
G1 X-1.667S0
G1 X-20S600
G1 X-1.667S0
G1 Y0.1S0
G1 X1.667S0
G1 X20S600
G1 X1.667S0
G1 Y0.1S0
G1 X-1.667S0
G1 X-20S600
G1 X-1.667S0
G1 Y0.1S0
G1 X1.667S0
G1 X20S600
G1 X1.666S0
G1 Y0.1S0
G1 X-1.666S0
G1 X-20S600
G1 X-1.667S0
G1 Y0.1S0
G1 X1.667S0
G1 X20S600
G1 X1.666S0
G1 Y0.1S0
G1 X-1.666S0
G1 X-20S600
G1 X-1.667S0
G1 Y0.1S0
G1 X1.666S0
G1 X20S600
G1 X1.667S0
G1 Y0.1S0
G1 X-1.667S0
G1 X-20S600
G1 X-1.666S0
G1 Y0.1S0
G1 X1.666S0
G1 X20S600
G1 X1.667S0
G1 Y0.1S0
G1 X-1.667S0
G1 X-20S600
G1 X-1.666S0
G1 Y0.1S0
G1 X1.666S0
G1 X20S600
G1 X1.667S0
G1 Y0.1S0
G1 X-1.667S0
G1 X-20S600
G1 X-1.667S0
G1 Y0.1S0
G1 X1.667S0
G1 X20S600
G1 X1.667S0
G1 Y0.1S0
G1 X-1.667S0
G1 X-20S600
G1 X-1.667S0
G1 Y0.1S0
G1 X1.667S0
G1 X20S600
G1 X1.667S0
G1 Y0.1S0
G1 X-1.667S0
G1 X-20S600
G1 X-1.667S0
G1 Y0.1S0
G1 X1.667S0
G1 X20S600
G1 X1.666S0
G1 Y0.1S0
G1 X-1.666S0
G1 X-20S600
G1 X-1.667S0
G1 Y0.1S0
G1 X1.667S0
G1 X20S600
G1 X1.666S0
G1 Y0.1S0
G1 X-1.666S0
G1 X-20S600
G1 X-1.667S0
G1 Y0.1S0
G1 X1.666S0
G1 X20.001S600
G1 X1.666S0
G1 Y0.1S0
G1 X-1.667S0
G1 X-20S600
G1 X-1.666S0
G1 Y0.1S0
G1 X1.666S0
G1 X20S600
G1 X1.667S0
G1 Y0.1S0
G1 X-1.667S0
G1 X-20S600
G1 X-1.666S0
G1 Y0.1S0
G1 X1.666S0
G1 X20S600
G1 X1.667S0
G1 Y0.1S0
G1 X-1.667S0
G1 X-20S600
G1 X-1.667S0
G1 Y0.1S0
G1 X1.667S0
G1 X20S600
G1 X1.667S0
G1 Y0.1S0
G1 X-1.667S0
G1 X-20S600
G1 X-1.667S0
G1 Y0.1S0
G1 X1.667S0
G1 X20S600
G1 X1.667S0
G1 Y0.1S0
G1 X-1.667S0
G1 X-20S600
G1 X-1.667S0
G1 Y0.1S0
G1 X1.667S0
G1 X20S600
G1 X1.666S0
G1 Y0.1S0
G1 X-1.666S0
G1 X-20S600
G1 X-1.667S0
G1 Y0.1S0
G1 X1.667S0
G1 X20S600
G1 X1.666S0
G1 Y0.1S0
G1 X-1.666S0
G1 X-20S600
G1 X-1.667S0
G1 Y0.1S0
G1 X1.667S0
G1 X20S600
G1 X1.666S0
G1 Y0.1S0
G1 X-1.667S0
G1 X-20S600
G1 X-1.666S0
G1 Y0.1S0
G1 X1.666S0
G1 X20S600
G1 X1.667S0
G1 Y0.1S0
G1 X-1.667S0
G1 X-20S600
G1 X-1.666S0
G1 Y0.1S0
G1 X1.666S0
G1 X20S600
G1 X1.667S0
G1 Y0.1S0
G1 X-1.667S0
G1 X-20S600
G1 X-1.666S0
G1 Y0.1S0
G1 X1.666S0
G1 X20S600
G1 X1.667S0
G1 Y0.1S0
G1 X-1.667S0
G1 X-20S600
G1 X-1.667S0
G1 Y0.1S0
G1 X1.667S0
G1 X20S600
G1 X1.667S0
G1 Y0.1S0
G1 X-1.667S0
G1 X-20S600
G1 X-1.667S0
G1 Y0.1S0
G1 X1.667S0
G1 X20S600
G1 X1.667S0
G1 Y0.1S0
G1 X-1.667S0
G1 X-20S600
G1 X-1.667S0
G1 Y0.1S0
G1 X1.667S0
G1 X20S600
G1 X1.666S0
G1 Y0.1S0
G1 X-1.666S0
G1 X-20S600
G1 X-1.667S0
G1 Y0.1S0
G1 X1.667S0
G1 X20S600
G1 X1.666S0
G1 Y0.1S0
G1 X-1.666S0
G1 X-20S600
G1 X-1.667S0
G1 Y0.1S0
G1 X1.666S0
G1 X20S600
G1 X1.667S0
G1 Y0.1S0
G1 X-1.667S0
G1 X-20S600
G1 X-1.666S0
G1 Y0.1S0
G1 X1.666S0
G1 X20S600
G1 X1.667S0
G1 Y0.1S0
G1 X-1.667S0
G1 X-20S600
G1 X-1.666S0
G1 Y0.1S0
G1 X1.666S0
G1 X20S600
G1 X1.667S0
G1 Y0.1S0
G1 X-1.667S0
G1 X-20S600
G1 X-1.667S0
G1 Y0.1S0
G1 X1.667S0
G1 X20S600
G1 X1.667S0
G1 Y0.1S0
G1 X-1.667S0
G1 X-20S600
G1 X-1.667S0
G1 Y0.1S0
G1 X1.667S0
G1 X20S600
G1 X1.667S0
G1 Y0.1S0
G1 X-1.667S0
G1 X-20S600
G1 X-1.667S0
G1 Y0.1S0
G1 X1.667S0
G1 X20S600
G1 X1.666S0
G1 Y0.1S0
G1 X-1.666S0
G1 X-20S600
G1 X-1.667S0
G1 Y0.1S0
G1 X1.667S0
G1 X20S600
G1 X1.666S0
G1 Y0.1S0
G1 X-1.666S0
G1 X-20S600
G1 X-1.667S0
G1 Y0.1S0
G1 X1.666S0
G1 X20S600
G1 X1.667S0
G1 Y0.1S0
G1 X-1.667S0
G1 X-20S600
G1 X-1.666S0
G1 Y0.1S0
G1 X1.666S0
G1 X20S600
G1 X1.667S0
G1 Y0.1S0
G1 X-1.667S0
G1 X-20S600
G1 X-1.666S0
G1 Y0.1S0
G1 X1.666S0
G1 X20S600
G1 X1.667S0
G1 Y0.1S0
G1 X-1.667S0
G1 X-20S600
G1 X-1.667S0
G90
; Layer C05 Pass 4 of 5
G91
G1 X0.014Y-19.9S0
G1 X1.667S0
G1 X20S600
G1 X1.666S0
G1 Y0.1S0
G1 X-1.666S0
G1 X-20S600
G1 X-1.667S0
G1 Y0.1S0
G1 X1.667S0
G1 X20S600
G1 X1.666S0
G1 Y0.1S0
G1 X-1.666S0
G1 X-20S600
G1 X-1.667S0
G1 Y0.1S0
G1 X1.667S0
G1 X20S600
G1 X1.666S0
G1 Y0.1S0
G1 X-1.667S0
G1 X-20S600
G1 X-1.666S0
G1 Y0.1S0
G1 X1.666S0
G1 X20S600
G1 X1.667S0
G1 Y0.1S0
G1 X-1.667S0
G1 X-20S600
G1 X-1.666S0
G1 Y0.1S0
G1 X1.666S0
G1 X20S600
G1 X1.667S0
G1 Y0.1S0
G1 X-1.667S0
G1 X-20S600
G1 X-1.666S0
G1 Y0.1S0
G1 X1.666S0
G1 X20S600
G1 X1.667S0
G1 Y0.1S0
G1 X-1.667S0
G1 X-20S600
G1 X-1.667S0
G1 Y0.1S0
G1 X1.667S0
G1 X20S600
G1 X1.667S0
G1 Y0.1S0
G1 X-1.667S0
G1 X-20S600
G1 X-1.667S0
G1 Y0.1S0
G1 X1.667S0
G1 X20S600
G1 X1.667S0
G1 Y0.1S0
G1 X-1.667S0
G1 X-20S600
G1 X-1.667S0
G1 Y0.1S0
G1 X1.667S0
G1 X20S600
G1 X1.666S0
G1 Y0.1S0
G1 X-1.666S0
G1 X-20S600
G1 X-1.667S0
G1 Y0.1S0
G1 X1.667S0
G1 X20S600
G1 X1.666S0
G1 Y0.1S0
G1 X-1.666S0
G1 X-20S600
G1 X-1.667S0
G1 Y0.1S0
G1 X1.666S0
G1 X20S600
G1 X1.667S0
G1 Y0.1S0
G1 X-1.667S0
G1 X-20S600
G1 X-1.666S0
G1 Y0.1S0
G1 X1.666S0
G1 X20S600
G1 X1.667S0
G1 Y0.1S0
G1 X-1.667S0
G1 X-20S600
G1 X-1.666S0
G1 Y0.1S0
G1 X1.666S0
G1 X20S600
G1 X1.667S0
G1 Y0.1S0
G1 X-1.667S0
G1 X-20S600
G1 X-1.667S0
G1 Y0.1S0
G1 X1.667S0
G1 X20S600
G1 X1.667S0
G1 Y0.1S0
G1 X-1.667S0
G1 X-20S600
G1 X-1.667S0
G1 Y0.1S0
G1 X1.667S0
G1 X20S600
G1 X1.667S0
G1 Y0.1S0
G1 X-1.667S0
G1 X-20S600
G1 X-1.667S0
G1 Y0.1S0
G1 X1.667S0
G1 X20S600
G1 X1.666S0
G1 Y0.1S0
G1 X-1.666S0
G1 X-20S600
G1 X-1.667S0
G1 Y0.1S0
G1 X1.667S0
G1 X20S600
G1 X1.666S0
G1 Y0.1S0
G1 X-1.666S0
G1 X-20S600
G1 X-1.667S0
G1 Y0.1S0
G1 X1.666S0
G1 X20S600
G1 X1.667S0
G1 Y0.1S0
G1 X-1.667S0
G1 X-20S600
G1 X-1.666S0
G1 Y0.1S0
G1 X1.666S0
G1 X20S600
G1 X1.667S0
G1 Y0.1S0
G1 X-1.667S0
G1 X-20S600
G1 X-1.666S0
G1 Y0.1S0
G1 X1.666S0
G1 X20S600
G1 X1.667S0
G1 Y0.1S0
G1 X-1.667S0
G1 X-20S600
G1 X-1.667S0
G1 Y0.1S0
G1 X1.667S0
G1 X20S600
G1 X1.667S0
G1 Y0.1S0
G1 X-1.667S0
G1 X-20S600
G1 X-1.667S0
G1 Y0.1S0
G1 X1.667S0
G1 X20S600
G1 X1.667S0
G1 Y0.1S0
G1 X-1.667S0
G1 X-20S600
G1 X-1.667S0
G1 Y0.1S0
G1 X1.667S0
G1 X20S600
G1 X1.666S0
G1 Y0.1S0
G1 X-1.666S0
G1 X-20S600
G1 X-1.667S0
G1 Y0.1S0
G1 X1.667S0
G1 X20S600
G1 X1.666S0
G1 Y0.1S0
G1 X-1.666S0
G1 X-20S600
G1 X-1.667S0
G1 Y0.1S0
G1 X1.667S0
G1 X20S600
G1 X1.666S0
G1 Y0.1S0
G1 X-1.667S0
G1 X-20S600
G1 X-1.666S0
G1 Y0.1S0
G1 X1.666S0
G1 X20S600
G1 X1.667S0
G1 Y0.1S0
G1 X-1.667S0
G1 X-20S600
G1 X-1.666S0
G1 Y0.1S0
G1 X1.666S0
G1 X20S600
G1 X1.667S0
G1 Y0.1S0
G1 X-1.667S0
G1 X-20S600
G1 X-1.666S0
G1 Y0.1S0
G1 X1.666S0
G1 X20S600
G1 X1.667S0
G1 Y0.1S0
G1 X-1.667S0
G1 X-20S600
G1 X-1.667S0
G1 Y0.1S0
G1 X1.667S0
G1 X20S600
G1 X1.667S0
G1 Y0.1S0
G1 X-1.667S0
G1 X-20S600
G1 X-1.667S0
G1 Y0.1S0
G1 X1.667S0
G1 X20S600
G1 X1.667S0
G1 Y0.1S0
G1 X-1.667S0
G1 X-20S600
G1 X-1.667S0
G1 Y0.1S0
G1 X1.667S0
G1 X20S600
G1 X1.666S0
G1 Y0.1S0
G1 X-1.666S0
G1 X-20S600
G1 X-1.667S0
G1 Y0.1S0
G1 X1.667S0
G1 X20S600
G1 X1.666S0
G1 Y0.1S0
G1 X-1.667S0
G1 X-20S600
G1 X-1.666S0
G1 Y0.1S0
G1 X1.666S0
G1 X20S600
G1 X1.667S0
G1 Y0.1S0
G1 X-1.667S0
G1 X-20S600
G1 X-1.666S0
G1 Y0.1S0
G1 X1.666S0
G1 X20S600
G1 X1.667S0
G1 Y0.1S0
G1 X-1.667S0
G1 X-20S600
G1 X-1.666S0
G1 Y0.1S0
G1 X1.666S0
G1 X20S600
G1 X1.667S0
G1 Y0.1S0
G1 X-1.667S0
G1 X-20S600
G1 X-1.667S0
G1 Y0.1S0
G1 X1.667S0
G1 X20S600
G1 X1.667S0
G1 Y0.1S0
G1 X-1.667S0
G1 X-20S600
G1 X-1.667S0
G1 Y0.1S0
G1 X1.667S0
G1 X20S600
G1 X1.667S0
G1 Y0.1S0
G1 X-1.667S0
G1 X-20S600
G1 X-1.667S0
G1 Y0.1S0
G1 X1.667S0
G1 X20S600
G1 X1.666S0
G1 Y0.1S0
G1 X-1.666S0
G1 X-20S600
G1 X-1.667S0
G1 Y0.1S0
G1 X1.667S0
G1 X20S600
G1 X1.666S0
G1 Y0.1S0
G1 X-1.666S0
G1 X-20S600
G1 X-1.667S0
G1 Y0.1S0
G1 X1.666S0
G1 X20S600
G1 X1.667S0
G1 Y0.1S0
G1 X-1.667S0
G1 X-20S600
G1 X-1.666S0
G1 Y0.1S0
G1 X1.666S0
G1 X20S600
G1 X1.667S0
G1 Y0.1S0
G1 X-1.667S0
G1 X-20S600
G1 X-1.666S0
G1 Y0.1S0
G1 X1.666S0
G1 X20S600
G1 X1.667S0
G1 Y0.1S0
G1 X-1.667S0
G1 X-20S600
G1 X-1.667S0
G1 Y0.1S0
G1 X1.667S0
G1 X20S600
G1 X1.667S0
G1 Y0.1S0
G1 X-1.667S0
G1 X-20S600
G1 X-1.667S0
G1 Y0.1S0
G1 X1.667S0
G1 X20S600
G1 X1.667S0
G1 Y0.1S0
G1 X-1.667S0
G1 X-20S600
G1 X-1.667S0
G1 Y0.1S0
G1 X1.667S0
G1 X20S600
G1 X1.666S0
G1 Y0.1S0
G1 X-1.666S0
G1 X-20S600
G1 X-1.667S0
G1 Y0.1S0
G1 X1.667S0
G1 X20S600
G1 X1.666S0
G1 Y0.1S0
G1 X-1.666S0
G1 X-20S600
G1 X-1.667S0
G1 Y0.1S0
G1 X1.666S0
G1 X20S600
G1 X1.667S0
G1 Y0.1S0
G1 X-1.667S0
G1 X-20S600
G1 X-1.666S0
G1 Y0.1S0
G1 X1.666S0
G1 X20S600
G1 X1.667S0
G1 Y0.1S0
G1 X-1.667S0
G1 X-20S600
G1 X-1.666S0
G1 Y0.1S0
G1 X1.666S0
G1 X20S600
G1 X1.667S0
G1 Y0.1S0
G1 X-1.667S0
G1 X-20S600
G1 X-1.667S0
G1 Y0.1S0
G1 X1.667S0
G1 X20S600
G1 X1.667S0
G1 Y0.1S0
G1 X-1.667S0
G1 X-20S600
G1 X-1.667S0
G1 Y0.1S0
G1 X1.667S0
G1 X20S600
G1 X1.667S0
G1 Y0.1S0
G1 X-1.667S0
G1 X-20S600
G1 X-1.667S0
G1 Y0.1S0
G1 X1.667S0
G1 X20S600
G1 X1.666S0
G1 Y0.1S0
G1 X-1.666S0
G1 X-20S600
G1 X-1.667S0
G1 Y0.1S0
G1 X1.667S0
G1 X20S600
G1 X1.666S0
G1 Y0.1S0
G1 X-1.666S0
G1 X-20S600
G1 X-1.667S0
G1 Y0.1S0
G1 X1.667S0
G1 X20S600
G1 X1.666S0
G1 Y0.1S0
G1 X-1.667S0
G1 X-20S600
G1 X-1.666S0
G1 Y0.1S0
G1 X1.666S0
G1 X20S600
G1 X1.667S0
G1 Y0.1S0
G1 X-1.667S0
G1 X-20S600
G1 X-1.666S0
G1 Y0.1S0
G1 X1.666S0
G1 X20S600
G1 X1.667S0
G1 Y0.1S0
G1 X-1.667S0
G1 X-20S600
G1 X-1.666S0
G1 Y0.1S0
G1 X1.666S0
G1 X20S600
G1 X1.667S0
G1 Y0.1S0
G1 X-1.667S0
G1 X-20S600
G1 X-1.667S0
G1 Y0.1S0
G1 X1.667S0
G1 X20S600
G1 X1.667S0
G1 Y0.1S0
G1 X-1.667S0
G1 X-20S600
G1 X-1.667S0
G1 Y0.1S0
G1 X1.667S0
G1 X20S600
G1 X1.667S0
G1 Y0.1S0
G1 X-1.667S0
G1 X-20S600
G1 X-1.667S0
G1 Y0.1S0
G1 X1.667S0
G1 X20S600
G1 X1.666S0
G1 Y0.1S0
G1 X-1.666S0
G1 X-20S600
G1 X-1.667S0
G1 Y0.1S0
G1 X1.667S0
G1 X20S600
G1 X1.666S0
G1 Y0.1S0
G1 X-1.666S0
G1 X-20.001S600
G1 X-1.666S0
G1 Y0.1S0
G1 X1.666S0
G1 X20S600
G1 X1.667S0
G1 Y0.1S0
G1 X-1.667S0
G1 X-20S600
G1 X-1.666S0
G1 Y0.1S0
G1 X1.666S0
G1 X20S600
G1 X1.667S0
G1 Y0.1S0
G1 X-1.667S0
G1 X-20S600
G1 X-1.666S0
G1 Y0.1S0
G1 X1.666S0
G1 X20S600
G1 X1.667S0
G1 Y0.1S0
G1 X-1.667S0
G1 X-20S600
G1 X-1.667S0
G1 Y0.1S0
G1 X1.667S0
G1 X20S600
G1 X1.667S0
G1 Y0.1S0
G1 X-1.667S0
G1 X-20S600
G1 X-1.667S0
G1 Y0.1S0
G1 X1.667S0
G1 X20S600
G1 X1.667S0
G1 Y0.1S0
G1 X-1.667S0
G1 X-20S600
G1 X-1.667S0
G1 Y0.1S0
G1 X1.667S0
G1 X20S600
G1 X1.666S0
G1 Y0.1S0
G1 X-1.666S0
G1 X-20S600
G1 X-1.667S0
G1 Y0.1S0
G1 X1.667S0
G1 X20S600
G1 X1.666S0
G1 Y0.1S0
G1 X-1.666S0
G1 X-20S600
G1 X-1.667S0
G1 Y0.1S0
G1 X1.666S0
G1 X20S600
G1 X1.667S0
G1 Y0.1S0
G1 X-1.667S0
G1 X-20S600
G1 X-1.666S0
G1 Y0.1S0
G1 X1.666S0
G1 X20S600
G1 X1.667S0
G1 Y0.1S0
G1 X-1.667S0
G1 X-20S600
G1 X-1.666S0
G1 Y0.1S0
G1 X1.666S0
G1 X20S600
G1 X1.667S0
G1 Y0.1S0
G1 X-1.667S0
G1 X-20S600
G1 X-1.667S0
G1 Y0.1S0
G1 X1.667S0
G1 X20S600
G1 X1.667S0
G1 Y0.1S0
G1 X-1.667S0
G1 X-20S600
G1 X-1.667S0
G1 Y0.1S0
G1 X1.667S0
G1 X20S600
G1 X1.667S0
G1 Y0.1S0
G1 X-1.667S0
G1 X-20S600
G1 X-1.667S0
G1 Y0.1S0
G1 X1.667S0
G1 X20S600
G1 X1.666S0
G1 Y0.1S0
G1 X-1.666S0
G1 X-20S600
G1 X-1.667S0
G1 Y0.1S0
G1 X1.667S0
G1 X20S600
G1 X1.666S0
G1 Y0.1S0
G1 X-1.666S0
G1 X-20S600
G1 X-1.667S0
G1 Y0.1S0
G1 X1.666S0
G1 X20.001S600
G1 X1.666S0
G1 Y0.1S0
G1 X-1.667S0
G1 X-20S600
G1 X-1.666S0
G1 Y0.1S0
G1 X1.666S0
G1 X20S600
G1 X1.667S0
G1 Y0.1S0
G1 X-1.667S0
G1 X-20S600
G1 X-1.666S0
G1 Y0.1S0
G1 X1.666S0
G1 X20S600
G1 X1.667S0
G1 Y0.1S0
G1 X-1.667S0
G1 X-20S600
G1 X-1.667S0
G1 Y0.1S0
G1 X1.667S0
G1 X20S600
G1 X1.667S0
G1 Y0.1S0
G1 X-1.667S0
G1 X-20S600
G1 X-1.667S0
G1 Y0.1S0
G1 X1.667S0
G1 X20S600
G1 X1.667S0
G1 Y0.1S0
G1 X-1.667S0
G1 X-20S600
G1 X-1.667S0
G1 Y0.1S0
G1 X1.667S0
G1 X20S600
G1 X1.666S0
G1 Y0.1S0
G1 X-1.666S0
G1 X-20S600
G1 X-1.667S0
G1 Y0.1S0
G1 X1.667S0
G1 X20S600
G1 X1.666S0
G1 Y0.1S0
G1 X-1.666S0
G1 X-20S600
G1 X-1.667S0
G1 Y0.1S0
G1 X1.667S0
G1 X20S600
G1 X1.666S0
G1 Y0.1S0
G1 X-1.667S0
G1 X-20S600
G1 X-1.666S0
G1 Y0.1S0
G1 X1.666S0
G1 X20S600
G1 X1.667S0
G1 Y0.1S0
G1 X-1.667S0
G1 X-20S600
G1 X-1.666S0
G1 Y0.1S0
G1 X1.666S0
G1 X20S600
G1 X1.667S0
G1 Y0.1S0
G1 X-1.667S0
G1 X-20S600
G1 X-1.666S0
G1 Y0.1S0
G1 X1.666S0
G1 X20S600
G1 X1.667S0
G1 Y0.1S0
G1 X-1.667S0
G1 X-20S600
G1 X-1.667S0
G1 Y0.1S0
G1 X1.667S0
G1 X20S600
G1 X1.667S0
G1 Y0.1S0
G1 X-1.667S0
G1 X-20S600
G1 X-1.667S0
G1 Y0.1S0
G1 X1.667S0
G1 X20S600
G1 X1.667S0
G1 Y0.1S0
G1 X-1.667S0
G1 X-20S600
G1 X-1.667S0
G1 Y0.1S0
G1 X1.667S0
G1 X20S600
G1 X1.666S0
G1 Y0.1S0
G1 X-1.666S0
G1 X-20S600
G1 X-1.667S0
G1 Y0.1S0
G1 X1.667S0
G1 X20S600
G1 X1.666S0
G1 Y0.1S0
G1 X-1.666S0
G1 X-20S600
G1 X-1.667S0
G1 Y0.1S0
G1 X1.666S0
G1 X20S600
G1 X1.667S0
G1 Y0.1S0
G1 X-1.667S0
G1 X-20S600
G1 X-1.666S0
G1 Y0.1S0
G1 X1.666S0
G1 X20S600
G1 X1.667S0
G1 Y0.1S0
G1 X-1.667S0
G1 X-20S600
G1 X-1.666S0
G1 Y0.1S0
G1 X1.666S0
G1 X20S600
G1 X1.667S0
G1 Y0.1S0
G1 X-1.667S0
G1 X-20S600
G1 X-1.667S0
G1 Y0.1S0
G1 X1.667S0
G1 X20S600
G1 X1.667S0
G1 Y0.1S0
G1 X-1.667S0
G1 X-20S600
G1 X-1.667S0
G1 Y0.1S0
G1 X1.667S0
G1 X20S600
G1 X1.667S0
G1 Y0.1S0
G1 X-1.667S0
G1 X-20S600
G1 X-1.667S0
G1 Y0.1S0
G1 X1.667S0
G1 X20S600
G1 X1.666S0
G1 Y0.1S0
G1 X-1.666S0
G1 X-20S600
G1 X-1.667S0
G1 Y0.1S0
G1 X1.667S0
G1 X20S600
G1 X1.666S0
G1 Y0.1S0
G1 X-1.666S0
G1 X-20S600
G1 X-1.667S0
G1 Y0.1S0
G1 X1.666S0
G1 X20S600
G1 X1.667S0
G1 Y0.1S0
G1 X-1.667S0
G1 X-20S600
G1 X-1.666S0
G1 Y0.1S0
G1 X1.666S0
G1 X20S600
G1 X1.667S0
G1 Y0.1S0
G1 X-1.667S0
G1 X-20S600
G1 X-1.666S0
G1 Y0.1S0
G1 X1.666S0
G1 X20S600
G1 X1.667S0
G1 Y0.1S0
G1 X-1.667S0
G1 X-20S600
G1 X-1.667S0
G90
; Layer C05 Pass 5 of 5
G91
G1 X0.014Y-19.9S0
G1 X1.667S0
G1 X20S600
G1 X1.666S0
G1 Y0.1S0
G1 X-1.666S0
G1 X-20S600
G1 X-1.667S0
G1 Y0.1S0
G1 X1.667S0
G1 X20S600
G1 X1.666S0
G1 Y0.1S0
G1 X-1.666S0
G1 X-20S600
G1 X-1.667S0
G1 Y0.1S0
G1 X1.667S0
G1 X20S600
G1 X1.666S0
G1 Y0.1S0
G1 X-1.667S0
G1 X-20S600
G1 X-1.666S0
G1 Y0.1S0
G1 X1.666S0
G1 X20S600
G1 X1.667S0
G1 Y0.1S0
G1 X-1.667S0
G1 X-20S600
G1 X-1.666S0
G1 Y0.1S0
G1 X1.666S0
G1 X20S600
G1 X1.667S0
G1 Y0.1S0
G1 X-1.667S0
G1 X-20S600
G1 X-1.666S0
G1 Y0.1S0
G1 X1.666S0
G1 X20S600
G1 X1.667S0
G1 Y0.1S0
G1 X-1.667S0
G1 X-20S600
G1 X-1.667S0
G1 Y0.1S0
G1 X1.667S0
G1 X20S600
G1 X1.667S0
G1 Y0.1S0
G1 X-1.667S0
G1 X-20S600
G1 X-1.667S0
G1 Y0.1S0
G1 X1.667S0
G1 X20S600
G1 X1.667S0
G1 Y0.1S0
G1 X-1.667S0
G1 X-20S600
G1 X-1.667S0
G1 Y0.1S0
G1 X1.667S0
G1 X20S600
G1 X1.666S0
G1 Y0.1S0
G1 X-1.666S0
G1 X-20S600
G1 X-1.667S0
G1 Y0.1S0
G1 X1.667S0
G1 X20S600
G1 X1.666S0
G1 Y0.1S0
G1 X-1.666S0
G1 X-20S600
G1 X-1.667S0
G1 Y0.1S0
G1 X1.666S0
G1 X20S600
G1 X1.667S0
G1 Y0.1S0
G1 X-1.667S0
G1 X-20S600
G1 X-1.666S0
G1 Y0.1S0
G1 X1.666S0
G1 X20S600
G1 X1.667S0
G1 Y0.1S0
G1 X-1.667S0
G1 X-20S600
G1 X-1.666S0
G1 Y0.1S0
G1 X1.666S0
G1 X20S600
G1 X1.667S0
G1 Y0.1S0
G1 X-1.667S0
G1 X-20S600
G1 X-1.667S0
G1 Y0.1S0
G1 X1.667S0
G1 X20S600
G1 X1.667S0
G1 Y0.1S0
G1 X-1.667S0
G1 X-20S600
G1 X-1.667S0
G1 Y0.1S0
G1 X1.667S0
G1 X20S600
G1 X1.667S0
G1 Y0.1S0
G1 X-1.667S0
G1 X-20S600
G1 X-1.667S0
G1 Y0.1S0
G1 X1.667S0
G1 X20S600
G1 X1.666S0
G1 Y0.1S0
G1 X-1.666S0
G1 X-20S600
G1 X-1.667S0
G1 Y0.1S0
G1 X1.667S0
G1 X20S600
G1 X1.666S0
G1 Y0.1S0
G1 X-1.666S0
G1 X-20S600
G1 X-1.667S0
G1 Y0.1S0
G1 X1.666S0
G1 X20S600
G1 X1.667S0
G1 Y0.1S0
G1 X-1.667S0
G1 X-20S600
G1 X-1.666S0
G1 Y0.1S0
G1 X1.666S0
G1 X20S600
G1 X1.667S0
G1 Y0.1S0
G1 X-1.667S0
G1 X-20S600
G1 X-1.666S0
G1 Y0.1S0
G1 X1.666S0
G1 X20S600
G1 X1.667S0
G1 Y0.1S0
G1 X-1.667S0
G1 X-20S600
G1 X-1.667S0
G1 Y0.1S0
G1 X1.667S0
G1 X20S600
G1 X1.667S0
G1 Y0.1S0
G1 X-1.667S0
G1 X-20S600
G1 X-1.667S0
G1 Y0.1S0
G1 X1.667S0
G1 X20S600
G1 X1.667S0
G1 Y0.1S0
G1 X-1.667S0
G1 X-20S600
G1 X-1.667S0
G1 Y0.1S0
G1 X1.667S0
G1 X20S600
G1 X1.666S0
G1 Y0.1S0
G1 X-1.666S0
G1 X-20S600
G1 X-1.667S0
G1 Y0.1S0
G1 X1.667S0
G1 X20S600
G1 X1.666S0
G1 Y0.1S0
G1 X-1.666S0
G1 X-20S600
G1 X-1.667S0
G1 Y0.1S0
G1 X1.667S0
G1 X20S600
G1 X1.666S0
G1 Y0.1S0
G1 X-1.667S0
G1 X-20S600
G1 X-1.666S0
G1 Y0.1S0
G1 X1.666S0
G1 X20S600
G1 X1.667S0
G1 Y0.1S0
G1 X-1.667S0
G1 X-20S600
G1 X-1.666S0
G1 Y0.1S0
G1 X1.666S0
G1 X20S600
G1 X1.667S0
G1 Y0.1S0
G1 X-1.667S0
G1 X-20S600
G1 X-1.666S0
G1 Y0.1S0
G1 X1.666S0
G1 X20S600
G1 X1.667S0
G1 Y0.1S0
G1 X-1.667S0
G1 X-20S600
G1 X-1.667S0
G1 Y0.1S0
G1 X1.667S0
G1 X20S600
G1 X1.667S0
G1 Y0.1S0
G1 X-1.667S0
G1 X-20S600
G1 X-1.667S0
G1 Y0.1S0
G1 X1.667S0
G1 X20S600
G1 X1.667S0
G1 Y0.1S0
G1 X-1.667S0
G1 X-20S600
G1 X-1.667S0
G1 Y0.1S0
G1 X1.667S0
G1 X20S600
G1 X1.666S0
G1 Y0.1S0
G1 X-1.666S0
G1 X-20S600
G1 X-1.667S0
G1 Y0.1S0
G1 X1.667S0
G1 X20S600
G1 X1.666S0
G1 Y0.1S0
G1 X-1.667S0
G1 X-20S600
G1 X-1.666S0
G1 Y0.1S0
G1 X1.666S0
G1 X20S600
G1 X1.667S0
G1 Y0.1S0
G1 X-1.667S0
G1 X-20S600
G1 X-1.666S0
G1 Y0.1S0
G1 X1.666S0
G1 X20S600
G1 X1.667S0
G1 Y0.1S0
G1 X-1.667S0
G1 X-20S600
G1 X-1.666S0
G1 Y0.1S0
G1 X1.666S0
G1 X20S600
G1 X1.667S0
G1 Y0.1S0
G1 X-1.667S0
G1 X-20S600
G1 X-1.667S0
G1 Y0.1S0
G1 X1.667S0
G1 X20S600
G1 X1.667S0
G1 Y0.1S0
G1 X-1.667S0
G1 X-20S600
G1 X-1.667S0
G1 Y0.1S0
G1 X1.667S0
G1 X20S600
G1 X1.667S0
G1 Y0.1S0
G1 X-1.667S0
G1 X-20S600
G1 X-1.667S0
G1 Y0.1S0
G1 X1.667S0
G1 X20S600
G1 X1.666S0
G1 Y0.1S0
G1 X-1.666S0
G1 X-20S600
G1 X-1.667S0
G1 Y0.1S0
G1 X1.667S0
G1 X20S600
G1 X1.666S0
G1 Y0.1S0
G1 X-1.666S0
G1 X-20S600
G1 X-1.667S0
G1 Y0.1S0
G1 X1.666S0
G1 X20S600
G1 X1.667S0
G1 Y0.1S0
G1 X-1.667S0
G1 X-20S600
G1 X-1.666S0
G1 Y0.1S0
G1 X1.666S0
G1 X20S600
G1 X1.667S0
G1 Y0.1S0
G1 X-1.667S0
G1 X-20S600
G1 X-1.666S0
G1 Y0.1S0
G1 X1.666S0
G1 X20S600
G1 X1.667S0
G1 Y0.1S0
G1 X-1.667S0
G1 X-20S600
G1 X-1.667S0
G1 Y0.1S0
G1 X1.667S0
G1 X20S600
G1 X1.667S0
G1 Y0.1S0
G1 X-1.667S0
G1 X-20S600
G1 X-1.667S0
G1 Y0.1S0
G1 X1.667S0
G1 X20S600
G1 X1.667S0
G1 Y0.1S0
G1 X-1.667S0
G1 X-20S600
G1 X-1.667S0
G1 Y0.1S0
G1 X1.667S0
G1 X20S600
G1 X1.666S0
G1 Y0.1S0
G1 X-1.666S0
G1 X-20S600
G1 X-1.667S0
G1 Y0.1S0
G1 X1.667S0
G1 X20S600
G1 X1.666S0
G1 Y0.1S0
G1 X-1.666S0
G1 X-20S600
G1 X-1.667S0
G1 Y0.1S0
G1 X1.666S0
G1 X20S600
G1 X1.667S0
G1 Y0.1S0
G1 X-1.667S0
G1 X-20S600
G1 X-1.666S0
G1 Y0.1S0
G1 X1.666S0
G1 X20S600
G1 X1.667S0
G1 Y0.1S0
G1 X-1.667S0
G1 X-20S600
G1 X-1.666S0
G1 Y0.1S0
G1 X1.666S0
G1 X20S600
G1 X1.667S0
G1 Y0.1S0
G1 X-1.667S0
G1 X-20S600
G1 X-1.667S0
G1 Y0.1S0
G1 X1.667S0
G1 X20S600
G1 X1.667S0
G1 Y0.1S0
G1 X-1.667S0
G1 X-20S600
G1 X-1.667S0
G1 Y0.1S0
G1 X1.667S0
G1 X20S600
G1 X1.667S0
G1 Y0.1S0
G1 X-1.667S0
G1 X-20S600
G1 X-1.667S0
G1 Y0.1S0
G1 X1.667S0
G1 X20S600
G1 X1.666S0
G1 Y0.1S0
G1 X-1.666S0
G1 X-20S600
G1 X-1.667S0
G1 Y0.1S0
G1 X1.667S0
G1 X20S600
G1 X1.666S0
G1 Y0.1S0
G1 X-1.666S0
G1 X-20S600
G1 X-1.667S0
G1 Y0.1S0
G1 X1.667S0
G1 X20S600
G1 X1.666S0
G1 Y0.1S0
G1 X-1.667S0
G1 X-20S600
G1 X-1.666S0
G1 Y0.1S0
G1 X1.666S0
G1 X20S600
G1 X1.667S0
G1 Y0.1S0
G1 X-1.667S0
G1 X-20S600
G1 X-1.666S0
G1 Y0.1S0
G1 X1.666S0
G1 X20S600
G1 X1.667S0
G1 Y0.1S0
G1 X-1.667S0
G1 X-20S600
G1 X-1.666S0
G1 Y0.1S0
G1 X1.666S0
G1 X20S600
G1 X1.667S0
G1 Y0.1S0
G1 X-1.667S0
G1 X-20S600
G1 X-1.667S0
G1 Y0.1S0
G1 X1.667S0
G1 X20S600
G1 X1.667S0
G1 Y0.1S0
G1 X-1.667S0
G1 X-20S600
G1 X-1.667S0
G1 Y0.1S0
G1 X1.667S0
G1 X20S600
G1 X1.667S0
G1 Y0.1S0
G1 X-1.667S0
G1 X-20S600
G1 X-1.667S0
G1 Y0.1S0
G1 X1.667S0
G1 X20S600
G1 X1.666S0
G1 Y0.1S0
G1 X-1.666S0
G1 X-20S600
G1 X-1.667S0
G1 Y0.1S0
G1 X1.667S0
G1 X20S600
G1 X1.666S0
G1 Y0.1S0
G1 X-1.666S0
G1 X-20.001S600
G1 X-1.666S0
G1 Y0.1S0
G1 X1.666S0
G1 X20S600
G1 X1.667S0
G1 Y0.1S0
G1 X-1.667S0
G1 X-20S600
G1 X-1.666S0
G1 Y0.1S0
G1 X1.666S0
G1 X20S600
G1 X1.667S0
G1 Y0.1S0
G1 X-1.667S0
G1 X-20S600
G1 X-1.666S0
G1 Y0.1S0
G1 X1.666S0
G1 X20S600
G1 X1.667S0
G1 Y0.1S0
G1 X-1.667S0
G1 X-20S600
G1 X-1.667S0
G1 Y0.1S0
G1 X1.667S0
G1 X20S600
G1 X1.667S0
G1 Y0.1S0
G1 X-1.667S0
G1 X-20S600
G1 X-1.667S0
G1 Y0.1S0
G1 X1.667S0
G1 X20S600
G1 X1.667S0
G1 Y0.1S0
G1 X-1.667S0
G1 X-20S600
G1 X-1.667S0
G1 Y0.1S0
G1 X1.667S0
G1 X20S600
G1 X1.666S0
G1 Y0.1S0
G1 X-1.666S0
G1 X-20S600
G1 X-1.667S0
G1 Y0.1S0
G1 X1.667S0
G1 X20S600
G1 X1.666S0
G1 Y0.1S0
G1 X-1.666S0
G1 X-20S600
G1 X-1.667S0
G1 Y0.1S0
G1 X1.666S0
G1 X20S600
G1 X1.667S0
G1 Y0.1S0
G1 X-1.667S0
G1 X-20S600
G1 X-1.666S0
G1 Y0.1S0
G1 X1.666S0
G1 X20S600
G1 X1.667S0
G1 Y0.1S0
G1 X-1.667S0
G1 X-20S600
G1 X-1.666S0
G1 Y0.1S0
G1 X1.666S0
G1 X20S600
G1 X1.667S0
G1 Y0.1S0
G1 X-1.667S0
G1 X-20S600
G1 X-1.667S0
G1 Y0.1S0
G1 X1.667S0
G1 X20S600
G1 X1.667S0
G1 Y0.1S0
G1 X-1.667S0
G1 X-20S600
G1 X-1.667S0
G1 Y0.1S0
G1 X1.667S0
G1 X20S600
G1 X1.667S0
G1 Y0.1S0
G1 X-1.667S0
G1 X-20S600
G1 X-1.667S0
G1 Y0.1S0
G1 X1.667S0
G1 X20S600
G1 X1.666S0
G1 Y0.1S0
G1 X-1.666S0
G1 X-20S600
G1 X-1.667S0
G1 Y0.1S0
G1 X1.667S0
G1 X20S600
G1 X1.666S0
G1 Y0.1S0
G1 X-1.666S0
G1 X-20S600
G1 X-1.667S0
G1 Y0.1S0
G1 X1.666S0
G1 X20.001S600
G1 X1.666S0
G1 Y0.1S0
G1 X-1.667S0
G1 X-20S600
G1 X-1.666S0
G1 Y0.1S0
G1 X1.666S0
G1 X20S600
G1 X1.667S0
G1 Y0.1S0
G1 X-1.667S0
G1 X-20S600
G1 X-1.666S0
G1 Y0.1S0
G1 X1.666S0
G1 X20S600
G1 X1.667S0
G1 Y0.1S0
G1 X-1.667S0
G1 X-20S600
G1 X-1.667S0
G1 Y0.1S0
G1 X1.667S0
G1 X20S600
G1 X1.667S0
G1 Y0.1S0
G1 X-1.667S0
G1 X-20S600
G1 X-1.667S0
G1 Y0.1S0
G1 X1.667S0
G1 X20S600
G1 X1.667S0
G1 Y0.1S0
G1 X-1.667S0
G1 X-20S600
G1 X-1.667S0
G1 Y0.1S0
G1 X1.667S0
G1 X20S600
G1 X1.666S0
G1 Y0.1S0
G1 X-1.666S0
G1 X-20S600
G1 X-1.667S0
G1 Y0.1S0
G1 X1.667S0
G1 X20S600
G1 X1.666S0
G1 Y0.1S0
G1 X-1.666S0
G1 X-20S600
G1 X-1.667S0
G1 Y0.1S0
G1 X1.667S0
G1 X20S600
G1 X1.666S0
G1 Y0.1S0
G1 X-1.667S0
G1 X-20S600
G1 X-1.666S0
G1 Y0.1S0
G1 X1.666S0
G1 X20S600
G1 X1.667S0
G1 Y0.1S0
G1 X-1.667S0
G1 X-20S600
G1 X-1.666S0
G1 Y0.1S0
G1 X1.666S0
G1 X20S600
G1 X1.667S0
G1 Y0.1S0
G1 X-1.667S0
G1 X-20S600
G1 X-1.666S0
G1 Y0.1S0
G1 X1.666S0
G1 X20S600
G1 X1.667S0
G1 Y0.1S0
G1 X-1.667S0
G1 X-20S600
G1 X-1.667S0
G1 Y0.1S0
G1 X1.667S0
G1 X20S600
G1 X1.667S0
G1 Y0.1S0
G1 X-1.667S0
G1 X-20S600
G1 X-1.667S0
G1 Y0.1S0
G1 X1.667S0
G1 X20S600
G1 X1.667S0
G1 Y0.1S0
G1 X-1.667S0
G1 X-20S600
G1 X-1.667S0
G1 Y0.1S0
G1 X1.667S0
G1 X20S600
G1 X1.666S0
G1 Y0.1S0
G1 X-1.666S0
G1 X-20S600
G1 X-1.667S0
G1 Y0.1S0
G1 X1.667S0
G1 X20S600
G1 X1.666S0
G1 Y0.1S0
G1 X-1.666S0
G1 X-20S600
G1 X-1.667S0
G1 Y0.1S0
G1 X1.666S0
G1 X20S600
G1 X1.667S0
G1 Y0.1S0
G1 X-1.667S0
G1 X-20S600
G1 X-1.666S0
G1 Y0.1S0
G1 X1.666S0
G1 X20S600
G1 X1.667S0
G1 Y0.1S0
G1 X-1.667S0
G1 X-20S600
G1 X-1.666S0
G1 Y0.1S0
G1 X1.666S0
G1 X20S600
G1 X1.667S0
G1 Y0.1S0
G1 X-1.667S0
G1 X-20S600
G1 X-1.667S0
G1 Y0.1S0
G1 X1.667S0
G1 X20S600
G1 X1.667S0
G1 Y0.1S0
G1 X-1.667S0
G1 X-20S600
G1 X-1.667S0
G1 Y0.1S0
G1 X1.667S0
G1 X20S600
G1 X1.667S0
G1 Y0.1S0
G1 X-1.667S0
G1 X-20S600
G1 X-1.667S0
G1 Y0.1S0
G1 X1.667S0
G1 X20S600
G1 X1.666S0
G1 Y0.1S0
G1 X-1.666S0
G1 X-20S600
G1 X-1.667S0
G1 Y0.1S0
G1 X1.667S0
G1 X20S600
G1 X1.666S0
G1 Y0.1S0
G1 X-1.666S0
G1 X-20S600
G1 X-1.667S0
G1 Y0.1S0
G1 X1.666S0
G1 X20S600
G1 X1.667S0
G1 Y0.1S0
G1 X-1.667S0
G1 X-20S600
G1 X-1.666S0
G1 Y0.1S0
G1 X1.666S0
G1 X20S600
G1 X1.667S0
G1 Y0.1S0
G1 X-1.667S0
G1 X-20S600
G1 X-1.666S0
G1 Y0.1S0
G1 X1.666S0
G1 X20S600
G1 X1.667S0
G1 Y0.1S0
G1 X-1.667S0
G1 X-20S600
G1 X-1.667S0
G90
; Cut @ 4000 mm/min, 85% power
M9
G0 X130Y30
; Layer BoneCUT
G1 X2S850
M9
G1 S0
M5
G90
; return to user-defined finish pos
G0 X0 Y0

;USER END SCRIPT
$32=0
;USER END SCRIPT
M2
